G21         ; Set units to mm
G90         ; Absolute positioning


; Pass 0

; First Move
G0 X105.76 Y18.95 ; Generated by LaserWeb (lw.raster-to-gcode.js)
; Size       : 0 x 0 mm
; PPI        : x: 300 - y: 300
; PPM        : x: 0.0846666667 - y: 0.0846666667
; Tool diam. : 0.2 mm
; Feed rate  : 80 mm/min
; Beam range : 0 to 1
; Beam power : 0 to 100 %
; Options    : trimLine, joinPixel

G1 F80

G0 X105.76 Y18.95 S0.0000
G1 X105.86 S0.0863
X106.06 S0.3137
X106.26 S0.2275
X106.36 S0.0196
G0 X109.56 S0.0000
G1 X109.66 S0.1451
X109.86 S0.3333
X109.96 S0.1686
G0 X111.16 S0.0000
G1 X111.26 S0.0314
X111.46 S0.2510
X114.06 S0.3804
X114.26 S0.3765
X114.36 S0.2039
G0 X119.36 S0.0000
G1 X119.46 S0.0549
X119.66 S0.2706
X119.86 S0.2667
X119.96 S0.0431
G0 X120.56 Y19.15 S0.0000
G1 X120.46 S0.0157
X120.26 S0.0392
X120.06 S0.0471
X119.86 S0.1451
X119.66 S0.6588
X119.46 S0.6667
X119.26 S0.1686
X114.46 S0.0471
X114.26 S0.5176
X114.06 S0.9098
X111.86 S0.9216
X111.66 S0.9137
X111.46 S0.8863
X111.26 S0.5765
X111.16 S0.0745
G0 X109.96 S0.0000
G1 X109.86 S0.4118
X109.66 S0.8078
X109.46 S0.3765
X106.46 S0.0471
X106.26 S0.0902
X106.06 S0.5647
X105.86 S0.7608
X105.66 S0.2510
X104.66 S0.0471
X104.46 S0.0314
X104.36 S0.0078
G0 X101.56 S0.0000
G1 X101.46 S0.0039
X101.26 S0.0314
X101.06 S0.0353
X100.86 S0.0078
X100.66 S0.0196
X100.46 S0.0431
X99.26 S0.0471
X99.06 S0.0392
X98.86 S0.0118
X98.66 S0.0157
X98.46 S0.0392
X91.06 S0.0471
X90.86 S0.0353
X90.76 S0.0118
G0 X89.96 S0.0000
G1 X89.86 S0.0039
X89.66 S0.0314
X86.66 S0.0471
X86.46 S0.0392
X86.26 S0.0157
X86.06 S0.0118
X85.86 S0.0392
X85.66 S0.0235
X85.46 S0.0039
X85.26 S0.0275
X84.66 S0.0471
X84.46 S0.0431
X84.26 S0.0196
X84.06 S0.0078
X83.86 S0.0314
X83.46 S0.0471
X83.36 S0.0235
G0 X82.76 S0.0000
G1 X82.66 S0.0118
X82.46 S0.0392
X82.26 S0.0275
X82.06 S0.0039
X81.86 S0.0275
X81.66 S0.0392
X81.56 S0.0118
G0 X79.56 S0.0000
G1 X79.46 S0.0275
X76.46 S0.0471
X76.26 S0.0431
X76.16 S0.0196
G0 X75.16 S0.0000
G1 X75.06 S0.0235
X74.86 S0.0392
X74.66 S0.0118
X74.46 S0.0157
X74.26 S0.0392
X74.16 S0.0235
G0 X71.16 S0.0000
G1 X71.06 S0.0118
X70.86 S0.0392
X68.46 S0.0471
X68.36 S0.0235
G0 X62.56 S0.0000
G1 X62.46 S0.0235
X62.26 S0.0392
X62.16 S0.0157
G0 X61.36 S0.0000
G1 X61.26 S0.0039
X61.06 S0.0275
X60.26 S0.0471
X60.16 S0.0196
G0 X54.36 S0.0000
G1 X54.26 S0.0235
X53.46 S0.0471
X53.36 S0.0235
G0 X49.96 S0.0000
G1 X49.86 S0.0196
X49.66 S0.0431
X49.56 S0.0157
G0 X36.36 S0.0000
G1 X36.26 S0.0157
X36.06 S0.0431
X35.86 S0.0471
X35.66 S0.0392
X35.56 S0.0157
G0 X20.96 S0.0000
G1 X20.86 S0.0235
X20.66 S0.0392
X20.56 S0.0157
G0 Y19.35 S0.0000
G1 X20.66 S0.1725
X20.86 S0.4745
X21.06 S0.2824
X21.16 S0.0039
G0 X35.56 S0.0000
G1 X35.66 S0.1725
X35.86 S0.4863
X36.06 S0.5490
X36.26 S0.5098
X36.36 S0.1882
G0 X49.56 S0.0000
G1 X49.66 S0.2078
X49.86 S0.5098
X49.96 S0.2471
G0 X53.36 S0.0000
G1 X53.46 S0.2902
X53.66 S0.5412
X54.26 S0.5490
X54.46 S0.2980
X54.56 S0.0196
G0 X59.96 S0.0000
G1 X60.06 S0.0078
X60.26 S0.2588
X60.46 S0.5451
X61.06 S0.5490
X61.26 S0.3255
X61.36 S0.0275
G0 X62.16 S0.0000
G1 X62.26 S0.1882
X62.46 S0.4902
X62.56 S0.2706
G0 X68.16 S0.0000
G1 X68.26 S0.0039
X68.46 S0.2902
X68.66 S0.5412
X70.86 S0.5490
X71.06 S0.4667
X71.16 S0.1451
G0 X73.96 S0.0000
G1 X74.06 S0.0196
X74.26 S0.2980
X74.46 S0.4824
X74.66 S0.1569
X74.86 S0.1647
X75.06 S0.4706
X75.16 S0.2902
G0 X75.96 S0.0000
G1 X76.06 S0.0039
X76.26 S0.2235
X76.46 S0.5373
X79.46 S0.5490
X79.66 S0.3412
X79.76 S0.0275
G0 X81.56 S0.0000
G1 X81.66 S0.1333
X81.86 S0.4627
X82.06 S0.3216
X82.26 S0.0667
X82.46 S0.3255
X82.66 S0.4510
X82.76 S0.1294
G0 X83.16 S0.0000
G1 X83.26 S0.0157
X83.46 S0.2902
X83.86 S0.5490
X84.06 S0.3961
X84.26 S0.0745
X84.46 S0.2510
X84.66 S0.5333
X85.26 S0.5490
X85.46 S0.3373
X85.66 S0.0667
X85.86 S0.3098
X86.06 S0.4667
X86.26 S0.1451
X86.46 S0.1765
X86.66 S0.4902
X89.66 S0.5490
X89.86 S0.3882
X89.96 S0.0627
G0 X90.76 S0.0000
G1 X90.86 S0.1255
X91.06 S0.4510
X98.46 S0.5490
X98.66 S0.4902
X98.86 S0.1686
X99.06 S0.1608
X99.26 S0.4745
X100.46 S0.5490
X100.66 S0.5333
X100.86 S0.2392
X101.06 S0.0863
X101.26 S0.4078
X101.46 S0.3725
X101.56 S0.0549
G0 X104.36 S0.0000
G1 X104.46 S0.0745
X104.66 S0.3922
X105.66 S0.5490
X105.86 S0.6549
X106.06 S0.9176
X106.26 S0.8196
X106.46 S0.5725
X109.46 S0.5490
X109.66 S0.7216
X109.86 S0.9176
X109.96 S0.4471
G0 X111.16 S0.0000
G1 X111.26 S0.0392
X111.46 S0.2941
X111.66 S0.5843
X111.86 S0.9059
X114.06 S1.0000
X114.26 S0.9961
X114.46 S0.7961
X119.26 S0.5490
X119.46 S0.6118
X119.66 S0.8706
X119.86 S0.8667
X120.06 S0.6039
X120.26 S0.5490
X120.46 S0.4980
X120.56 S0.1961
G0 Y19.55 S0.0000
G1 X120.46 S0.3569
X120.26 S0.9059
X111.86 S1.0000
X111.66 S0.8549
X111.46 S0.3529
X110.06 S0.1412
X109.86 S0.5255
X109.66 S0.9608
X104.66 S1.0000
X104.46 S0.7529
X104.26 S0.2588
X101.66 S0.1412
X101.46 S0.2275
X101.26 S0.7216
X101.06 S0.7765
X100.86 S0.2745
X100.66 S0.5137
X100.46 S0.9686
X99.26 S1.0000
X99.06 S0.8784
X98.86 S0.3882
X98.66 S0.4000
X98.46 S0.9020
X91.06 S1.0000
X90.86 S0.8431
X90.66 S0.3373
X90.06 S0.1412
X89.86 S0.2392
X89.66 S0.7412
X86.66 S1.0000
X86.46 S0.9059
X86.26 S0.4196
X86.06 S0.3647
X85.86 S0.8706
X85.66 S0.6275
X85.46 S0.2392
X85.26 S0.6627
X84.66 S1.0000
X84.46 S0.9725
X84.26 S0.5333
X84.06 S0.2588
X83.86 S0.7529
X83.66 S1.0000
X83.46 S0.9961
X83.26 S0.5922
X83.06 S0.1686
X82.86 S0.1412
X82.66 S0.3451
X82.46 S0.8471
X82.26 S0.6510
X82.06 S0.2431
X81.86 S0.6392
X81.66 S0.8588
X81.46 S0.3490
X79.86 S0.1412
X79.66 S0.1804
X79.46 S0.6745
X76.46 S1.0000
X76.26 S0.9804
X76.06 S0.4902
X75.86 S0.1451
X75.26 S0.1412
X75.06 S0.5922
X74.86 S0.8745
X74.66 S0.4000
X74.46 S0.3882
X74.26 S0.8941
X74.06 S0.6039
X73.86 S0.1725
X71.26 S0.1412
X71.06 S0.3647
X70.86 S0.8667
X68.66 S1.0000
X68.46 S0.9843
X68.26 S0.5922
X68.06 S0.1490
X62.66 S0.1412
X62.46 S0.5608
X62.26 S0.9020
X62.06 S0.4353
X61.46 S0.1412
X61.26 S0.1843
X61.06 S0.6510
X60.46 S1.0000
X60.26 S0.9882
X60.06 S0.5490
X59.86 S0.1569
X54.66 S0.1412
X54.46 S0.1686
X54.26 S0.6039
X53.66 S1.0000
X53.46 S0.9882
X53.26 S0.5961
X50.06 S0.1412
X49.86 S0.5255
X49.66 S0.9333
X49.46 S0.4667
X36.46 S0.1412
X36.26 S0.4314
X36.06 S0.9373
X35.86 S1.0000
X35.66 S0.8941
X35.46 S0.4078
X21.26 S0.1412
X21.06 S0.1490
X20.86 S0.5804
X20.66 S0.8784
X20.46 S0.4078
X20.26 S0.1020
X20.16 S0.0196
G0 Y19.75 S0.0000
G1 X20.26 S0.1020
X20.46 S0.5294
X20.66 S0.8118
X20.86 S0.9608
X21.06 S0.8667
X35.46 S0.7255
X35.66 S0.8118
X35.86 S0.9647
X36.06 S1.0000
X36.26 S0.9804
X36.46 S0.8196
X49.46 S0.7255
X49.66 S0.8275
X49.86 S0.9804
X50.06 S0.8471
X53.26 S0.7255
X53.46 S0.8706
X53.66 S0.9961
X54.26 S1.0000
X54.46 S0.8745
X54.66 S0.7333
X59.86 S0.7255
X60.06 S0.7294
X60.26 S0.8549
X60.46 S0.9961
X61.06 S1.0000
X61.26 S0.8863
X61.46 S0.7373
X62.06 S0.7255
X62.26 S0.8196
X62.46 S0.9686
X62.66 S0.8588
X68.26 S0.7255
X68.46 S0.8706
X68.66 S0.9961
X70.86 S1.0000
X71.06 S0.9569
X71.26 S0.7961
X73.86 S0.7255
X74.06 S0.7373
X74.26 S0.8745
X74.46 S0.9647
X74.66 S0.8039
X74.86 S0.8078
X75.06 S0.9608
X75.26 S0.8706
X76.06 S0.7255
X76.26 S0.8353
X76.46 S0.9922
X79.46 S1.0000
X79.66 S0.8941
X79.86 S0.7373
X81.46 S0.7255
X81.66 S0.7922
X81.86 S0.9569
X82.06 S0.8863
X82.26 S0.7569
X82.46 S0.8863
X82.66 S0.9490
X82.86 S0.7922
X83.06 S0.7255
X83.26 S0.7333
X83.46 S0.8706
X83.86 S1.0000
X84.06 S0.9216
X84.26 S0.7608
X84.46 S0.8510
X84.66 S0.9922
X85.26 S1.0000
X85.46 S0.8902
X85.66 S0.7569
X85.86 S0.8824
X86.06 S0.9569
X86.26 S0.7961
X86.46 S0.8157
X86.66 S0.9686
X89.66 S1.0000
X89.86 S0.9176
X90.06 S0.7569
X90.66 S0.7255
X90.86 S0.7882
X91.06 S0.9490
X98.46 S1.0000
X98.66 S0.9686
X98.86 S0.8078
X99.06 S0.8039
X99.26 S0.9608
X100.46 S1.0000
X100.66 S0.9882
X100.86 S0.8431
X101.06 S0.7686
X101.26 S0.9294
X101.46 S0.9098
X101.66 S0.7529
X104.26 S0.7255
X104.46 S0.7647
X104.66 S0.9216
X109.66 S1.0000
X109.86 S0.9882
X110.06 S0.8471
X111.46 S0.7255
X111.66 S0.7922
X111.86 S0.9529
X120.26 S1.0000
X120.46 S0.9059
X120.56 S0.3569
G0 Y19.95 S0.0000
G1 X120.46 S0.3569
X120.26 S0.9059
X117.26 S1.0000
X117.06 S0.8980
X116.86 S0.7216
X116.66 S0.8471
X116.46 S0.9725
X116.26 S0.7882
X116.06 S0.7725
X115.86 S0.9529
X115.66 S0.8627
X115.46 S0.6980
X115.26 S0.8784
X115.06 S0.9373
X114.86 S0.7569
X109.86 S0.6863
X109.66 S0.7137
X109.46 S0.8824
X106.66 S1.0000
X106.46 S0.8706
X106.26 S0.7176
X106.06 S0.8745
X105.86 S0.9451
X105.66 S0.7608
X105.46 S0.8000
X105.26 S0.9647
X105.06 S0.8353
X104.86 S0.7255
X104.66 S0.9059
X104.06 S1.0000
X103.86 S0.9843
X103.66 S0.8039
X100.86 S0.6863
X100.66 S0.8235
X100.46 S0.9725
X100.26 S0.8118
X98.86 S0.6863
X98.66 S0.7804
X98.46 S0.9647
X95.46 S1.0000
X95.26 S0.9137
X95.06 S0.7333
X93.86 S0.6863
X93.66 S0.7020
X93.46 S0.8627
X76.46 S1.0000
X76.26 S0.9922
X76.06 S0.8157
X75.86 S0.6902
X71.66 S0.6863
X71.46 S0.7255
X71.26 S0.8980
X63.66 S1.0000
X63.46 S0.8314
X63.26 S0.7373
X63.06 S0.9137
X60.06 S1.0000
X59.86 S0.9608
X59.66 S0.7804
X59.46 S0.7765
X59.26 S0.9608
X49.06 S1.0000
X48.86 S0.8824
X48.66 S0.7059
X47.06 S0.6863
X46.86 S0.7647
X46.66 S0.9490
X24.86 S1.0000
X24.66 S0.8863
X24.46 S0.7020
X22.26 S0.6863
X22.06 S0.7020
X21.86 S0.8706
X20.46 S1.0000
X20.26 S0.7255
X20.16 S0.1412
G0 Y20.15 S0.0000
G1 X20.26 S0.1412
X20.46 S0.7255
X21.86 S1.0000
X22.06 S0.6392
X22.26 S0.1804
X24.46 S0.1412
X24.66 S0.1804
X24.86 S0.6863
X35.86 S1.0000
X36.06 S0.9882
X36.26 S0.9804
X36.46 S0.9922
X39.86 S1.0000
X40.06 S0.9961
X40.26 S0.9843
X40.86 S0.9804
X41.06 S0.9843
X41.26 S0.9961
X44.26 S1.0000
X44.46 S0.9961
X44.66 S0.9843
X45.46 S0.9804
X45.66 S0.9922
X46.66 S1.0000
X46.86 S0.8588
X47.06 S0.3529
X48.66 S0.1412
X48.86 S0.1804
X49.06 S0.6745
X52.46 S1.0000
X52.66 S0.9961
X52.86 S0.9843
X54.66 S0.9804
X54.86 S0.9922
X59.26 S1.0000
X59.46 S0.8902
X59.66 S0.3882
X59.86 S0.4000
X60.06 S0.8902
X60.26 S0.9882
X62.86 S0.9804
X63.06 S0.9922
X63.26 S0.7647
X63.46 S0.2706
X63.66 S0.5255
X66.26 S1.0000
X66.46 S0.9882
X70.66 S0.9804
X70.86 S0.9922
X71.26 S1.0000
X71.46 S0.7216
X71.66 S0.2353
X75.86 S0.1412
X76.06 S0.1451
X76.26 S0.4902
X76.46 S0.9804
X76.66 S0.9882
X78.86 S0.9804
X79.06 S0.9922
X82.46 S1.0000
X82.66 S0.9961
X82.86 S0.9843
X84.26 S0.9804
X84.46 S0.9882
X84.86 S1.0000
X85.06 S0.9961
X85.26 S0.9843
X85.86 S0.9804
X86.06 S0.9843
X86.26 S0.9961
X86.46 S0.9922
X86.66 S0.9804
X86.86 S0.9882
X87.66 S1.0000
X87.86 S0.9922
X88.06 S0.9804
X88.26 S0.9922
X88.66 S1.0000
X88.86 S0.9922
X93.06 S0.9804
X93.26 S0.9843
X93.46 S0.9961
X93.66 S0.6157
X93.86 S0.1765
X95.06 S0.1412
X95.26 S0.2667
X95.46 S0.7647
X96.06 S1.0000
X96.26 S0.9961
X96.46 S0.9882
X97.26 S0.9804
X97.46 S0.9922
X97.66 S0.9961
X97.86 S0.9843
X98.06 S0.9882
X98.26 S0.9961
X98.46 S1.0000
X98.66 S0.9059
X98.86 S0.4000
X100.26 S0.1412
X100.46 S0.4784
X100.66 S0.9255
X100.86 S0.5137
X103.66 S0.1412
X103.86 S0.4549
X104.06 S0.9608
X104.66 S1.0000
X104.86 S0.7412
X105.06 S0.2392
X105.26 S0.5451
X105.46 S0.9020
X105.66 S0.4471
X105.86 S0.3412
X106.06 S0.8431
X106.26 S0.6510
X106.46 S0.2196
X106.66 S0.6275
X106.86 S0.9765
X107.06 S0.9804
X107.26 S0.9882
X107.46 S1.0000
X107.66 S0.9882
X108.86 S0.9804
X109.06 S0.9922
X109.46 S1.0000
X109.66 S0.6745
X109.86 S0.2078
X114.86 S0.1412
X115.06 S0.3294
X115.26 S0.8314
X115.46 S0.6627
X115.66 S0.1647
X115.86 S0.6275
X116.06 S0.8667
X116.26 S0.3647
X116.46 S0.4196
X116.66 S0.9255
X116.86 S0.5725
X117.06 S0.2353
X117.26 S0.7176
X120.26 S1.0000
X120.46 S0.9059
X120.56 S0.3569
G0 Y20.35 S0.0000
G1 X120.46 S0.3569
X120.26 S0.9059
X117.26 S1.0000
X117.06 S0.8314
X116.86 S0.5412
X116.66 S0.7412
X116.46 S0.9529
X116.26 S0.6549
X116.06 S0.6196
X115.86 S0.9216
X115.66 S0.7765
X115.46 S0.4980
X115.26 S0.8000
X115.06 S0.8980
X114.86 S0.5961
X109.86 S0.4863
X109.66 S0.5255
X109.46 S0.8078
X109.06 S1.0000
X108.86 S0.8157
X108.66 S0.5529
X107.86 S0.5137
X107.66 S0.5255
X107.46 S0.7529
X107.26 S0.9569
X107.06 S0.6824
X106.66 S0.5137
X106.46 S0.5020
X106.26 S0.5098
X106.06 S0.7922
X105.86 S0.9059
X105.66 S0.6039
X105.46 S0.6667
X105.26 S0.9412
X105.06 S0.7294
X104.86 S0.5451
X104.66 S0.8471
X104.06 S1.0000
X103.86 S0.9765
X103.66 S0.6745
X100.86 S0.4863
X100.66 S0.7098
X100.46 S0.9529
X100.26 S0.6863
X98.86 S0.4863
X98.66 S0.6431
X98.46 S0.9412
X98.26 S1.0000
X98.06 S0.9529
X97.86 S0.6863
X97.66 S0.6275
X97.46 S0.9137
X97.26 S0.8039
X97.06 S0.5451
X96.46 S0.5137
X96.26 S0.6784
X96.06 S0.9490
X95.46 S1.0000
X95.26 S0.8588
X95.06 S0.5569
X93.86 S0.4863
X93.66 S0.5059
X93.46 S0.7686
X93.26 S0.9294
X93.06 S0.6471
X89.06 S0.5137
X88.86 S0.5451
X88.66 S0.8235
X88.26 S1.0000
X88.06 S0.8078
X87.86 S0.5412
X87.66 S0.7922
X87.46 S0.9961
X86.86 S1.0000
X86.66 S0.7569
X86.46 S0.5804
X86.26 S0.8431
X86.06 S0.8745
X85.86 S0.5882
X85.26 S0.5137
X85.06 S0.6078
X84.86 S0.8941
X84.66 S1.0000
X84.46 S0.9843
X84.26 S0.7373
X84.06 S0.5176
X82.86 S0.5137
X82.66 S0.6275
X82.46 S0.9137
X79.06 S1.0000
X78.86 S0.8157
X78.66 S0.5412
X76.66 S0.5137
X76.46 S0.7216
X76.26 S0.9843
X76.06 S0.6941
X71.66 S0.4863
X71.46 S0.5412
X71.26 S0.8314
X70.86 S1.0000
X70.66 S0.7922
X70.46 S0.5412
X66.46 S0.5137
X66.26 S0.6784
X66.06 S0.9529
X63.66 S1.0000
X63.46 S0.7137
X63.26 S0.5647
X63.06 S0.8588
X62.86 S0.8471
X62.66 S0.5608
X60.46 S0.5137
X60.26 S0.5216
X60.06 S0.7725
X59.86 S0.9255
X59.66 S0.6392
X59.46 S0.6314
X59.26 S0.9373
X54.86 S1.0000
X54.66 S0.8235
X54.46 S0.5569
X52.86 S0.5137
X52.66 S0.6275
X52.46 S0.9098
X49.06 S1.0000
X48.86 S0.8039
X48.66 S0.5098
X47.06 S0.4863
X46.86 S0.6118
X46.66 S0.9176
X45.66 S1.0000
X45.46 S0.8275
X45.26 S0.5569
X44.66 S0.5137
X44.46 S0.6549
X44.26 S0.9373
X41.26 S1.0000
X41.06 S0.8745
X40.86 S0.5922
X40.26 S0.5137
X40.06 S0.6118
X39.86 S0.8941
X36.46 S1.0000
X36.26 S0.8353
X36.06 S0.5490
X35.86 S0.7647
X35.66 S0.9882
X24.86 S1.0000
X24.66 S0.8118
X24.46 S0.5098
X22.26 S0.4863
X22.06 S0.5059
X21.86 S0.7843
X20.46 S1.0000
X20.26 S0.7255
X20.16 S0.1412
G0 Y20.55 S0.0000
G1 X20.26 S0.1412
X20.46 S0.7255
X21.86 S1.0000
X22.06 S0.9961
X24.66 S0.9922
X24.86 S0.9961
X35.66 S1.0000
X35.86 S0.9804
X36.06 S0.5569
X36.26 S0.1569
X36.46 S0.6902
X39.86 S1.0000
X40.06 S0.8000
X40.26 S0.2667
X40.86 S0.0902
X41.06 S0.2353
X41.26 S0.7647
X44.26 S1.0000
X44.46 S0.8824
X44.66 S0.3529
X45.26 S0.0902
X45.46 S0.1725
X45.66 S0.6784
X46.66 S1.0000
X46.86 S0.9843
X47.06 S0.9333
X47.26 S0.9373
X47.46 S0.9843
X48.86 S0.9922
X49.06 S0.9961
X52.46 S1.0000
X52.66 S0.8353
X52.86 S0.3059
X54.46 S0.0902
X54.66 S0.1647
X54.86 S0.6627
X59.46 S1.0000
X59.86 S0.9961
X60.06 S0.9843
X60.26 S0.5686
X60.46 S0.1020
X62.66 S0.0902
X62.86 S0.1804
X63.06 S0.7137
X63.26 S0.9961
X63.46 S0.9922
X63.86 S0.9961
X64.06 S0.9490
X64.26 S0.9373
X64.46 S0.9843
X64.86 S1.0000
X65.06 S0.9529
X65.26 S0.9294
X65.46 S0.9765
X66.06 S1.0000
X66.26 S0.9137
X66.46 S0.4000
X70.46 S0.0902
X70.66 S0.1373
X70.86 S0.6078
X71.26 S1.0000
X71.46 S0.9961
X76.06 S0.9922
X76.26 S0.9961
X76.46 S0.9843
X76.66 S0.4745
X78.66 S0.0902
X78.86 S0.1412
X79.06 S0.6549
X82.46 S1.0000
X82.66 S0.8353
X82.86 S0.3020
X84.06 S0.0902
X84.26 S0.0941
X84.46 S0.5059
X84.66 S0.9686
X84.86 S1.0000
X85.06 S0.8000
X85.26 S0.2667
X85.86 S0.0902
X86.06 S0.2275
X86.26 S0.7647
X86.46 S0.7020
X86.66 S0.2157
X86.86 S0.5451
X87.46 S1.0000
X87.66 S0.9922
X87.86 S0.6039
X88.06 S0.1373
