G21         ; Set units to mm
G90         ; Absolute positioning


; Pass 0

; First Move
G0 X19.52 Y18.75 ; Generated by LaserWeb (lw.raster-to-gcode.js)
; Size       : 0 x 0 mm
; PPI        : x: 300 - y: 300
; PPM        : x: 0.0846666667 - y: 0.0846666667
; Tool diam. : 0.2 mm
; Feed rate  : 3000 mm/min
; Beam range : 0 to 1
; Beam power : 0 to 40 %
; Options    : trimLine, joinPixel

G1 F3000

G0 X19.52 Y18.75 S0.0000
G1 X19.62 S0.0047
X19.82 S0.1757
X20.02 S0.2008
X20.22 S0.2275
X21.52 S0.4000
G0 X23.32 S0.0000
G1 X23.42 S0.0973
X23.82 S0.1020
X24.02 S0.2008
X24.22 S0.1647
X24.42 S0.1020
X25.02 S0.2008
X25.62 S0.4000
X25.82 S0.3843
X26.02 S0.2290
X26.42 S0.4000
X26.62 S0.2557
X27.22 S0.2008
X27.42 S0.1255
X28.82 S0.1020
X28.92 S0.0957
G0 X29.92 S0.0000
G1 X30.02 S0.1741
X30.22 S0.2745
X32.62 S0.4000
X32.72 S0.0157
G0 X33.12 S0.0000
G1 X33.22 S0.2682
X37.02 S0.4000
X37.22 S0.2055
X37.32 S0.1427
G0 X52.72 S0.0000
G1 X52.82 S0.0455
X56.02 S0.4000
X56.12 S0.3451
G0 X56.92 S0.0000
G1 X57.02 S0.1020
X57.22 S0.1161
X57.42 S0.2008
X57.62 S0.3843
X59.82 S0.4000
X59.92 S0.3122
G0 X61.52 S0.0000
G1 X61.62 S0.1145
X68.42 S0.4000
X68.52 S0.0580
G0 X70.92 S0.0000
G1 X71.42 S0.1020
X86.32 S0.4000
G0 X86.92 S0.0000
G1 X87.02 S0.1020
X94.82 S0.4000
X95.02 S0.2933
X95.22 S0.1992
X95.42 S0.3529
X96.82 S0.1992
X97.02 S0.3467
X97.82 S0.4000
X98.02 S0.2792
X98.22 S0.1067
X104.62 S0.4000
X104.72 S0.3702
G0 X106.32 S0.0000
G1 X108.82 S0.4000
X108.92 S0.2086
G0 X115.72 S0.0000
G1 S0.0251
G0 X117.92 S0.0000
G1 X118.02 S0.0063
X118.12 S0.0392
G0 X124.52 S0.0000
G1 X124.62 S0.0157
X124.72 S0.0329
G0 X125.32 S0.0000
G1 S0.0863
G0 X126.12 S0.0000
G1 X126.22 S0.0314
X126.42 S0.1992
X126.52 S0.0314
G0 X127.12 S0.0000
G1 X127.22 S0.0973
X127.32 S0.1129
G0 X127.92 S0.0000
G1 X128.02 S0.1208
X128.22 S0.1224
X128.32 S0.1098
G0 X128.72 S0.0000
G1 X128.82 S0.0878
X128.92 S0.0847
G0 X129.92 S0.0000
G1 X130.02 S0.1302
X130.12 S0.2996
G0 X135.52 S0.0000
G1 X135.62 S0.0314
X135.82 S0.1020
X136.02 S0.1867
X136.12 S0.1616
G0 X140.92 S0.0000
G1 X141.02 S0.3749
X141.12 S0.4000
G0 X146.52 S0.0000
G1 X146.62 S0.1051
X146.82 S0.2839
X147.42 S0.4000
X147.62 S0.2227
X147.72 S0.0282
G0 X147.12 Y18.95 S0.0000
G1 X147.02 S0.0110
X146.82 S0.0125
X146.72 S0.0031
G0 X141.12 S0.0000
G1 X141.02 S0.0078
X140.92 S0.0110
G0 X131.92 S0.0000
G1 X131.82 S0.1098
X131.62 S0.1914
X131.42 S0.0910
X131.32 S0.0125
G0 X130.72 S0.0000
G1 X130.62 S0.1710
X130.42 S0.3812
X130.22 S0.1035
X130.12 S0.0282
G0 X129.32 S0.0000
G1 S0.0831
G0 X128.72 S0.0000
G1 X128.62 S0.0408
X128.42 S0.2776
X128.32 S0.0188
G0 X127.52 S0.0000
G1 S0.0031
G0 X126.72 S0.0000
G1 X126.62 S0.2133
X126.52 S0.0125
G0 X109.12 S0.0000
G1 X109.02 S0.3294
X106.22 S0.4000
X106.02 S0.2886
X104.62 S0.1035
X87.02 S0.4000
X86.62 S0.3875
X86.42 S0.3953
X71.42 S0.4000
X69.82 S0.2965
X69.62 S0.2996
X69.22 S0.3875
X69.02 S0.2965
X68.82 S0.3812
X68.62 S0.3875
X68.42 S0.3922
X61.62 S0.4000
X60.22 S0.3875
X60.02 S0.3922
X58.22 S0.4000
X58.12 S0.0800
G0 X56.72 S0.0000
G1 X56.62 S0.2965
X56.42 S0.3875
X56.22 S0.3906
X53.82 S0.4000
X53.62 S0.3969
X53.22 S0.1035
X53.12 S0.0110
G0 X37.52 S0.0000
G1 X37.42 S0.0267
X37.32 S0.0016
G0 X36.92 S0.0000
G1 X36.82 S0.1851
X32.02 S0.4000
X31.82 S0.2086
X31.62 S0.0125
X31.42 S0.0424
X29.42 S0.4000
X29.02 S0.3875
X28.82 S0.3027
X28.52 S0.2965
G0 X22.72 S0.0000
G1 X22.62 S0.0471
X22.02 S0.2965
X21.82 S0.3514
X21.62 S0.3875
X21.42 S0.4000
X21.32 S0.1145
G0 X19.32 Y19.15 S0.0000
G1 X19.42 S0.3827
X19.62 S0.3106
X19.82 S0.2745
X20.02 S0.2886
X20.22 S0.3702
X20.42 S0.3984
X21.82 S0.4000
X22.02 S0.3812
X22.42 S0.3765
X25.62 S0.4000
X25.82 S0.3310
X26.02 S0.3325
X26.22 S0.4000
X26.42 S0.3216
X26.62 S0.3498
X29.22 S0.4000
X29.42 S0.3827
X29.82 S0.3765
X30.02 S0.2871
X30.22 S0.2024
X30.82 S0.0784
X31.02 S0.1161
X31.22 S0.1396
X36.42 S0.4000
X36.52 S0.1459
G0 X36.92 S0.0000
G1 S0.0612
G0 X54.32 S0.0000
G1 X54.82 S0.0784
X55.02 S0.1051
X55.22 S0.3592
X57.22 S0.4000
X57.42 S0.3624
X57.62 S0.2996
X57.82 S0.2039
X58.02 S0.2980
X58.22 S0.3765
X61.02 S0.4000
X61.12 S0.0063
G0 X61.72 S0.0000
G1 X61.82 S0.0110
X62.02 S0.1475
X69.22 S0.4000
X69.42 S0.0235
X69.52 S0.0173
G0 X70.52 S0.0000
G1 X70.62 S0.2227
X70.82 S0.2745
X71.02 S0.0784
X71.22 S0.1082
X71.82 S0.2745
X72.02 S0.3325
X72.22 S0.2745
X72.42 S0.0784
X72.62 S0.3341
X72.82 S0.3749
X73.02 S0.0784
X104.42 S0.4000
X104.62 S0.1820
X106.82 S0.0235
X109.42 S0.4000
X109.62 S0.3216
X110.02 S0.1255
X110.22 S0.0486
X110.32 S0.0047
G0 X119.12 S0.0000
G1 S0.0455
G0 X126.52 S0.0000
G1 S0.0110
G0 X126.92 S0.0000
G1 X127.02 S0.0392
X127.22 S0.2039
X127.42 S0.0800
X127.52 S0.0078
G0 X128.12 S0.0000
G1 S0.0894
G0 X128.92 S0.0000
G1 X129.02 S0.1631
X129.22 S0.1098
X129.32 S0.0031
G0 X129.72 S0.0000
G1 X129.82 S0.1020
X130.02 S0.2965
X130.22 S0.0737
X130.32 S0.0063
G0 X130.72 S0.0000
G1 X130.82 S0.0329
X131.02 S0.1365
X131.22 S0.1192
X131.42 S0.0235
X131.52 S0.0031
G0 X131.92 S0.0000
G1 X132.02 S0.0078
X132.22 S0.0706
X133.12 S0.0235
G0 X136.52 S0.0000
G1 X136.62 S0.0753
X136.82 S0.0925
X137.02 S0.3451
X137.22 S0.3875
X137.32 S0.0141
G0 X142.72 S0.0000
G1 X142.82 S0.1035
X143.22 S0.4000
X143.32 S0.0125
G0 Y19.35 S0.0000
G1 X143.22 S0.2620
X143.02 S0.1302
X142.82 S0.3153
X142.62 S0.3247
X142.52 S0.0141
G0 X137.32 S0.0000
G1 X137.22 S0.2369
X137.02 S0.1333
X136.92 S0.0047
G0 X134.92 S0.0000
G1 X134.82 S0.0831
X133.22 S0.0847
X133.02 S0.1302
X132.82 S0.2682
X132.62 S0.1412
X131.82 S0.1302
X131.62 S0.2369
X131.42 S0.3310
X131.22 S0.3843
X131.12 S0.1318
G0 X130.72 S0.0000
G1 X130.62 S0.0094
X130.42 S0.1255
X130.22 S0.2996
X130.12 S0.0659
G0 X129.72 S0.0000
G1 X129.62 S0.0251
X129.42 S0.2824
X129.22 S0.0847
X129.12 S0.0235
G0 X128.52 S0.0000
G1 X128.42 S0.1161
X128.32 S0.0063
G0 X127.92 S0.0000
G1 X127.82 S0.0204
X127.62 S0.2698
X127.42 S0.0816
X127.32 S0.0125
G0 X126.92 S0.0000
G1 S0.0078
G0 X126.52 S0.0000
G1 S0.0204
G0 X119.52 S0.0000
G1 X119.42 S0.0204
X119.22 S0.1427
X119.12 S0.0157
G0 X110.52 S0.0000
G1 X110.42 S0.0690
X110.22 S0.3576
X106.82 S0.4000
X106.62 S0.3953
X106.42 S0.0957
X105.02 S0.0455
X104.82 S0.0533
X104.62 S0.1302
X104.42 S0.1788
X73.02 S0.4000
X72.82 S0.3545
X72.62 S0.3969
X72.42 S0.3906
X72.22 S0.3184
X72.02 S0.2698
X71.82 S0.3294
X71.42 S0.2698
X71.22 S0.0816
X70.62 S0.0329
X70.42 S0.0957
X70.22 S0.3514
X69.62 S0.3545
X69.42 S0.3890
X62.02 S0.4000
X61.82 S0.3639
X61.62 S0.3482
X61.42 S0.2698
X61.22 S0.3545
X61.02 S0.3341
X60.82 S0.3671
X59.22 S0.4000
X59.02 S0.2729
X58.82 S0.1302
X58.62 S0.0863
X58.32 S0.0455
G0 X57.52 S0.0000
G1 X57.42 S0.0612
X55.62 S0.4000
X55.42 S0.3749
X55.22 S0.3671
X55.02 S0.3247
X54.92 S0.1145
G0 X37.12 S0.0000
G1 X37.02 S0.0016
X36.82 S0.0329
X36.62 S0.2243
X36.42 S0.3718
X32.22 S0.4000
X32.02 S0.3984
X31.82 S0.1302
X31.62 S0.3796
X31.02 S0.4000
X30.82 S0.3922
X30.42 S0.2698
X30.02 S0.0329
X29.92 S0.0282
G0 X29.32 S0.0000
G1 X29.22 S0.0957
X24.62 S0.4000
X24.42 S0.3780
X23.02 S0.1302
X22.52 S0.0455
G0 X21.92 S0.0000
G1 X21.82 S0.0565
X21.42 S0.3671
X21.22 S0.1976
X20.42 S0.0455
X20.32 S0.0424
G0 X19.32 S0.0000
G1 S0.1224
G0 Y19.55 S0.0000
G1 X19.42 S0.3922
X19.62 S0.3984
X19.82 S0.0361
X20.02 S0.3576
X20.22 S0.0361
X20.42 S0.0220
X20.52 S0.0016
G0 X20.92 S0.0000
G1 X22.02 S0.0078
X22.22 S0.0110
X22.42 S0.4000
X22.62 S0.2212
X23.02 S0.0361
X23.22 S0.1945
X23.42 S0.4000
X23.62 S0.0282
X24.42 S0.0078
X24.62 S0.1600
X24.72 S0.0078
G0 X27.32 S0.0000
G1 X27.42 S0.0016
X27.62 S0.0078
X27.82 S0.3592
X30.02 S0.4000
X30.22 S0.3969
X30.42 S0.3922
X30.62 S0.3639
X30.72 S0.1333
G0 X31.52 S0.0000
G1 X31.62 S0.3106
X37.42 S0.4000
X37.62 S0.0471
X37.72 S0.0063
G0 X55.52 S0.0000
G1 X55.62 S0.0078
X55.82 S0.0251
X57.22 S0.4000
X57.32 S0.2055
G0 X59.12 S0.0000
G1 X59.22 S0.0282
X59.62 S0.3922
X60.82 S0.4000
X61.02 S0.0188
X61.12 S0.0078
G0 X62.32 S0.0000
G1 X62.42 S0.1208
X62.82 S0.3639
X63.02 S0.3859
X63.42 S0.3922
X68.42 S0.4000
X68.62 S0.3953
X68.82 S0.3922
X69.02 S0.3780
X69.12 S0.3435
G0 X70.32 S0.0000
G1 X70.42 S0.0047
X70.62 S0.1678
X104.42 S0.4000
X104.62 S0.0188
X104.72 S0.0078
G0 X106.12 S0.0000
G1 X106.22 S0.0047
X106.42 S0.0220
X106.62 S0.0078
X106.82 S0.3812
X110.82 S0.4000
X111.02 S0.1929
X111.12 S0.0063
G0 X121.32 S0.0000
G1 S0.1145
G0 X126.32 S0.0000
G1 X126.42 S0.1992
X126.62 S0.0235
X126.72 S0.0031
G0 X127.12 S0.0000
G1 X127.22 S0.2792
X127.42 S0.0282
X127.52 S0.0016
G0 X127.92 S0.0000
G1 X128.02 S0.1443
X128.22 S0.2729
X128.32 S0.0078
G0 X128.92 S0.0000
G1 X129.02 S0.3906
X129.22 S0.0863
X129.32 S0.0016
G0 X129.72 S0.0000
G1 X129.82 S0.0816
X130.02 S0.4000
X130.22 S0.0361
X130.32 S0.0078
G0 X130.72 S0.0000
G1 X130.82 S0.1694
X131.32 S0.0078
G0 X131.72 S0.0000
G1 X131.82 S0.0031
X132.22 S0.0078
X132.32 S0.0031
G0 X133.12 S0.0000
G1 S0.0016
G0 X133.92 S0.0000
G1 X134.02 S0.0016
X134.32 S0.0078
G0 X136.72 S0.0000
G1 X136.82 S0.0078
X137.02 S0.0282
X137.22 S0.0722
X137.32 S0.3169
G0 X143.52 S0.0000
G1 X143.62 S0.3749
X143.82 S0.0455
X143.92 S0.0016
G0 Y19.75 S0.0000
G1 X143.82 S0.2369
X143.72 S0.3984
G0 X137.52 S0.0000
G1 X137.42 S0.1929
X137.32 S0.0941
G0 X134.32 S0.0000
G1 X134.12 S0.0016
G0 X133.12 S0.0000
G1 X133.02 S0.1867
X132.82 S0.1396
X132.42 S0.2384
X132.22 S0.2996
X132.02 S0.3263
X131.82 S0.3529
X131.42 S0.3984
X130.82 S0.4000
X130.42 S0.3984
X130.02 S0.4000
X129.82 S0.3984
X129.62 S0.0925
X129.42 S0.1443
X129.22 S0.3984
X129.02 S0.2133
X128.82 S0.0016
X128.62 S0.1600
X128.42 S0.3122
X128.32 S0.2463
G0 X127.72 S0.0000
G1 X127.62 S0.1490
X127.42 S0.2243
X127.22 S0.0016
X127.02 S0.0047
X126.82 S0.0800
X126.72 S0.1004
G0 X121.92 S0.0000
G1 X121.82 S0.0345
X121.72 S0.2118
G0 X120.32 S0.0000
G1 S0.0267
G0 X111.12 S0.0000
G1 X111.02 S0.2463
X109.02 S0.4000
X108.82 S0.3984
X107.42 S0.3263
X107.22 S0.2400
X106.82 S0.3263
X106.62 S0.3247
X106.42 S0.1459
X106.12 S0.0016
G0 X104.72 S0.0000
G1 X104.42 S0.0016
X104.22 S0.2400
X104.02 S0.3263
X103.82 S0.0016
X103.62 S0.1647
X96.42 S0.4000
X96.02 S0.3263
X95.82 S0.3686
X82.02 S0.4000
X81.82 S0.3278
X81.62 S0.3576
X81.42 S0.4000
X81.22 S0.1161
X81.02 S0.0016
X72.02 S0.4000
X70.32 S0.0016
G0 X68.32 S0.0000
G1 X67.82 S0.0016
X67.62 S0.1443
X67.02 S0.2400
X66.42 S0.3263
X66.22 S0.2824
X65.82 S0.2400
X65.62 S0.2620
X64.02 S0.2400
X63.82 S0.0565
X63.52 S0.0016
G0 X62.72 S0.0000
G1 X62.62 S0.0282
X62.42 S0.0737
X62.02 S0.1600
X61.82 S0.1992
X61.22 S0.3984
X60.02 S0.4000
X59.82 S0.0424
X59.72 S0.0016
G0 X57.92 S0.0000
G1 X57.82 S0.0298
X57.62 S0.1396
X57.42 S0.1600
X57.22 S0.3984
X55.82 S0.4000
X55.62 S0.3890
X55.52 S0.1820
G0 X52.52 S0.0000
G1 X52.42 S0.0063
X52.12 S0.1600
G0 X48.72 S0.0000
G1 X48.62 S0.2212
X48.42 S0.1396
X48.32 S0.0157
G0 X38.12 S0.0000
G1 X38.02 S0.0737
X37.82 S0.1600
X37.62 S0.3984
X31.42 S0.4000
X31.22 S0.3984
X31.02 S0.1710
X30.72 S0.0737
G0 X30.12 S0.0000
G1 X30.02 S0.0016
X29.82 S0.0314
X29.62 S0.2824
X29.42 S0.3263
X29.22 S0.3435
X27.42 S0.4000
X26.62 S0.3984
X26.42 S0.3341
X26.22 S0.1600
X24.82 S0.3984
X20.82 S0.4000
X20.62 S0.0925
X20.42 S0.0471
X20.22 S0.2824
X20.02 S0.2400
X19.52 S0.0016
G0 X19.32 Y19.95 S0.0000
G1 X19.42 S0.1224
X19.52 S0.1161
G0 X20.72 S0.0000
G1 X20.82 S0.0031
X21.02 S0.0063
X21.22 S0.0518
X21.82 S0.0957
X22.02 S0.2980
X22.82 S0.4000
X23.22 S0.0063
X23.42 S0.0910
X29.02 S0.4000
X29.22 S0.3953
X29.42 S0.0016
X29.62 S0.0063
X30.02 S0.1224
X30.22 S0.1898
X30.42 S0.3357
X30.62 S0.3937
X38.22 S0.4000
X38.62 S0.3937
X38.82 S0.3137
X38.92 S0.1145
G0 X52.12 S0.0000
G1 X52.22 S0.0392
X52.32 S0.0345
G0 X55.72 S0.0000
G1 X55.82 S0.0596
X56.02 S0.0957
X56.22 S0.1365
X57.42 S0.4000
X57.62 S0.1192
X57.82 S0.0753
X58.02 S0.0031
X58.22 S0.0878
X58.42 S0.1224
X58.62 S0.2102
X58.82 S0.0957
X59.02 S0.0627
X59.22 S0.1835
X59.42 S0.1851
X59.62 S0.3043
X59.82 S0.3106
X60.02 S0.3937
X62.62 S0.4000
X62.82 S0.3953
X63.02 S0.3937
X63.22 S0.3216
X63.82 S0.3043
X64.02 S0.2196
X64.42 S0.1224
X64.52 S0.0706
G0 X66.52 S0.0000
G1 X66.62 S0.0188
X66.92 S0.1224
G0 X67.32 S0.0000
G1 X67.42 S0.0173
X68.02 S0.1224
X68.42 S0.3043
X68.62 S0.2369
X68.82 S0.2714
X69.02 S0.1192
X69.42 S0.0878
X69.52 S0.0361
G0 X70.12 S0.0000
G1 X70.22 S0.0471
X70.42 S0.1176
X70.82 S0.3043
X71.02 S0.1459
X71.82 S0.3043
X72.02 S0.3482
X80.62 S0.4000
X80.82 S0.3420
X80.92 S0.0957
G0 X81.52 S0.0000
G1 X81.62 S0.0612
X81.72 S0.0204
G0 X82.12 S0.0000
G1 X82.22 S0.0941
X82.62 S0.2776
X95.82 S0.4000
X96.02 S0.2792
X96.12 S0.1224
G0 X96.52 S0.0000
G1 X96.62 S0.0063
X103.62 S0.4000
X103.82 S0.3686
X103.92 S0.3043
G0 X105.72 S0.0000
G1 X105.82 S0.1224
X105.92 S0.0737
G0 X106.52 S0.0000
G1 X106.62 S0.0031
X107.62 S0.1224
X107.72 S0.0235
G0 X108.12 S0.0000
G1 X108.82 S0.1224
X109.02 S0.3953
X110.22 S0.4000
X110.42 S0.3404
X110.62 S0.1239
X110.82 S0.0957
X110.92 S0.0094
G0 X120.32 S0.0000
G1 S0.0031
G0 X121.92 S0.0000
G1 S0.0031
G0 X123.92 S0.0000
G1 X124.02 S0.0188
X124.72 S0.1224
G0 X126.32 S0.0000
G1 X126.42 S0.1004
X126.62 S0.0988
X126.82 S0.0502
X127.02 S0.0031
X127.22 S0.3231
X127.42 S0.1506
X127.62 S0.0455
X127.82 S0.3984
X128.02 S0.3576
X128.12 S0.1725
G0 X128.52 S0.0000
G1 X128.62 S0.2886
X128.82 S0.4000
X129.02 S0.3937
X129.22 S0.3969
X131.82 S0.4000
X132.02 S0.2243
X132.32 S0.1224
G0 X132.72 S0.0000
G1 X132.82 S0.0063
X133.02 S0.0220
X133.22 S0.0941
X133.42 S0.1224
X133.52 S0.0957
G0 X137.12 S0.0000
G1 X137.22 S0.0925
X137.42 S0.3953
X137.62 S0.4000
X137.72 S0.2227
G0 X143.72 S0.0000
G1 S0.3937
G0 X147.32 Y20.15 S0.0000
G1 X147.22 S0.1271
X147.12 S0.1929
G0 X143.72 S0.0000
G1 X143.62 S0.4000
X143.52 S0.3498
G0 X143.12 S0.0000
G1 S0.0235
G0 X137.92 S0.0000
G1 X137.82 S0.2416
X137.22 S0.4000
X137.02 S0.1961
X136.82 S0.1553
X136.42 S0.0392
X136.32 S0.0204
G0 X135.52 S0.0000
G1 S0.0094
G0 X135.12 S0.0000
G1 X135.02 S0.0345
X134.92 S0.0392
G0 X134.52 S0.0000
G1 S0.0392
G0 X133.12 S0.0000
G1 X133.02 S0.0329
X129.42 S0.4000
X129.22 S0.3922
X129.02 S0.2322
X128.82 S0.2667
X128.22 S0.4000
X128.02 S0.3529
X127.82 S0.2322
X127.22 S0.4000
X127.12 S0.3090
G0 X125.72 S0.0000
G1 X125.62 S0.0251
X125.42 S0.3969
X124.62 S0.4000
X124.42 S0.3780
X124.32 S0.2714
G0 X122.72 S0.0000
G1 X122.62 S0.0737
X122.52 S0.0753
G0 X121.12 S0.0000
G1 S0.0016
G0 X119.32 S0.0000
G1 S0.1396
G0 X118.92 S0.0000
G1 X118.82 S0.0220
X118.62 S0.3357
X118.52 S0.0424
G0 X117.92 S0.0000
G1 S0.0769
G0 X116.52 S0.0000
G1 X116.42 S0.0094
X116.32 S0.1788
G0 X110.52 S0.0000
G1 X110.42 S0.0376
X110.22 S0.0392
X110.02 S0.1286
X108.02 S0.4000
X107.82 S0.3655
X106.62 S0.3592
X106.42 S0.3388
X104.62 S0.2322
X104.42 S0.2337
X104.22 S0.4000
X104.12 S0.3090
G0 X103.52 S0.0000
G1 X103.42 S0.3608
X82.82 S0.4000
X82.72 S0.0831
G0 X80.52 S0.0000
G1 X80.42 S0.0361
X75.02 S0.4000
X74.82 S0.1757
X74.12 S0.0392
G0 X73.72 S0.0000
G1 S0.0329
G0 X66.92 S0.0000
G1 X66.42 S0.2322
X64.82 S0.4000
X64.62 S0.3592
X64.42 S0.3827
X64.22 S0.4000
X63.62 S0.2322
X63.42 S0.3812
X63.22 S0.4000
X63.02 S0.3686
X62.82 S0.3059
X62.42 S0.4000
X62.22 S0.3341
X62.02 S0.2322
X61.02 S0.4000
X60.82 S0.3404
X60.72 S0.1710
G0 X58.12 S0.0000
G1 X58.02 S0.0392
X57.82 S0.0925
X57.62 S0.1961
X56.82 S0.4000
X56.62 S0.3231
X56.22 S0.2322
X56.12 S0.2243
G0 X52.92 S0.0000
G1 S0.1224
G0 X52.52 S0.0000
G1 X52.42 S0.0157
X52.02 S0.4000
X51.82 S0.3953
X51.72 S0.2996
G0 X43.12 S0.0000
