G21         ; Set units to mm
G90         ; Absolute positioning


; Pass 0

; First Move
G0 X4.57 Y3.94 ; Generated by LaserWeb (lw.raster-to-gcode.js)
; Size       : 0 x 0 mm
; PPI        : x: 300 - y: 300
; PPM        : x: 0.0846666667 - y: 0.0846666667
; Tool diam. : 0.2 mm
; Feed rate  : 84 mm/min
; Beam range : 0 to 1
; Beam power : 0 to 100 %
; Options    : trimLine, joinPixel

G1 F84

G0 X4.57 Y3.94 S0.0000
G1 X4.67 S0.6471
X5.47 S0.7451
X5.67 S0.3686
X5.77 S0.0510
G0 X24.57 S0.0000
G1 X24.67 S0.1529
X24.87 S0.7373
X24.97 S0.0627
G0 X26.17 S0.0000
G1 X26.27 S0.5098
X26.37 S0.0902
G0 X27.97 S0.0000
G1 X28.07 S0.0353
X28.47 S0.2353
X28.57 S0.1294
G0 X35.17 S0.0000
G1 X35.27 S0.0118
X35.47 S0.3765
X35.67 S0.4902
X35.87 S0.4471
X35.97 S0.3961
G0 X36.37 S0.0000
G1 X36.47 S0.3608
X36.67 S0.5098
X37.47 S0.7451
X45.47 S1.0000
X45.67 S0.9961
X45.87 S0.7882
X57.67 S1.0000
X57.87 S0.9765
X58.07 S0.9020
X72.87 S1.0000
X73.07 S0.8118
X73.67 S1.0000
X74.27 S0.7647
X74.47 S0.8039
X75.87 S1.0000
X76.07 S0.6039
X76.27 S0.3882
X76.47 S0.4745
X78.47 S0.4902
X78.67 S0.3569
X78.87 S0.5882
X79.07 S0.9490
X79.87 S1.0000
X80.07 S0.7451
X80.27 S1.0000
X80.47 S0.9882
X83.07 S0.7451
X83.27 S0.5373
X83.47 S0.7451
X83.67 S0.5451
X84.67 S0.5098
X84.87 S0.5137
X85.07 S0.6667
X85.27 S0.5490
X85.47 S0.7647
X85.67 S0.3647
X85.87 S0.0824
X86.07 S0.4784
X86.47 S0.7647
X86.67 S0.2471
X86.87 S0.3686
X87.07 S0.2549
X87.27 S0.6275
X87.37 S0.1098
G0 X96.37 S0.0000
G1 X96.47 S0.6157
X96.57 S0.1412
G0 X99.17 S0.0000
G1 X99.27 S0.1843
X99.47 S0.3020
X99.57 S0.0431
G0 X100.17 S0.0000
G1 S0.2157
G0 X101.17 S0.0000
G1 S0.0275
G0 X133.17 Y4.14 S0.0000
G1 X133.07 S0.0353
X132.87 S0.2078
X132.77 S0.7490
G0 X109.37 S0.0000
G1 X109.27 S0.2196
X109.17 S0.4078
G0 X107.57 S0.0000
G1 X107.47 S0.6078
X107.37 S0.7373
G0 X102.57 S0.0000
G1 X102.47 S0.0039
X102.37 S0.0235
G0 X100.17 S0.0000
G1 X100.07 S0.0078
X99.87 S0.7843
X99.77 S0.0627
G0 X99.17 S0.0000
G1 S0.2745
G0 X87.77 S0.0000
G1 X87.67 S0.1529
X87.47 S0.9961
X82.27 S1.0000
X82.07 S0.9373
X81.67 S0.2157
X81.47 S0.8314
X81.27 S0.5882
X81.07 S0.0863
X80.17 S0.0314
G0 X78.37 S0.0000
G1 X78.27 S0.3490
X78.17 S0.7843
G0 X77.77 S0.0000
G1 X77.67 S0.6941
X76.07 S0.7843
X75.87 S0.9608
X38.27 S1.0000
X38.07 S0.9882
X37.87 S0.7922
X37.67 S0.9686
X37.47 S0.9216
X37.27 S0.3451
X37.07 S0.0039
X36.97 S0.0275
G0 X35.97 S0.0000
G1 X35.87 S0.4745
X35.77 S0.7843
G0 X32.77 S0.0000
G1 X32.67 S0.5686
X32.47 S0.9686
X32.37 S0.0980
G0 X29.37 S0.0000
G1 X29.27 S0.0275
X29.07 S0.0078
X28.97 S0.0196
G0 X26.97 S0.0000
G1 X26.87 S0.4510
X26.67 S0.9725
X26.47 S0.0353
X26.07 S0.0314
X25.97 S0.0118
G0 X25.57 S0.0000
G1 X25.47 S0.1569
X25.27 S0.8902
X25.07 S0.2627
X24.87 S0.0275
X24.77 S0.0235
G0 X24.37 S0.0000
G1 X24.27 S0.7843
X24.07 S0.9686
X23.87 S0.4039
X23.77 S0.0039
G0 X5.17 S0.0000
G1 X5.07 S0.1412
X4.87 S0.8078
X4.67 S1.0000
X4.47 S0.9961
X4.37 S0.0510
G0 Y4.34 S0.0000
G1 X4.47 S0.2784
X4.57 S0.2706
G0 X24.17 S0.0000
G1 X24.27 S0.0275
X24.47 S0.5294
X24.67 S0.9137
X24.77 S0.7490
G0 X25.97 S0.0000
G1 X26.07 S0.0431
X26.27 S0.1608
X26.47 S0.3216
X26.57 S0.0235
G0 X27.77 S0.0000
G1 X27.87 S0.1294
X28.07 S0.2235
X28.37 S0.6863
G0 X28.97 S0.0000
G1 X29.07 S0.1490
X29.17 S0.0549
G0 X29.57 S0.0000
G1 S0.2078
G0 X31.77 S0.0000
G1 S0.0627
G0 X32.37 S0.0000
G1 X32.47 S0.0863
X32.57 S0.0431
G0 X32.97 S0.0000
G1 X33.07 S0.1451
X33.17 S0.0863
G0 X35.57 S0.0000
G1 X35.67 S0.1333
X35.87 S0.7294
X36.87 S0.9137
X37.07 S0.9294
X43.67 S1.0000
X43.87 S0.9216
X76.07 S1.0000
X76.27 S0.9294
X77.67 S0.9137
X81.27 S1.0000
X81.47 S0.9255
X81.87 S0.8549
X82.07 S0.8745
X82.27 S0.8549
X82.67 S0.9529
X83.27 S0.8549
X83.47 S0.9255
X83.67 S0.8784
X83.87 S0.8000
X84.07 S0.4588
X84.27 S0.6353
X84.47 S0.3137
X84.67 S0.3922
X85.07 S0.4588
X85.27 S0.9608
X85.67 S1.0000
X85.87 S0.4588
X87.87 S1.0000
X88.07 S0.9882
X88.27 S0.7373
X88.47 S0.6039
X88.57 S0.2941
G0 X95.57 S0.0000
G1 X95.67 S0.0824
X95.87 S0.0078
X96.07 S0.2471
X96.17 S0.1333
G0 X97.37 S0.0000
G1 X97.47 S0.0980
X97.57 S0.0157
G0 X98.17 S0.0000
G1 X98.27 S0.0706
X98.37 S0.3137
G0 X99.97 S0.0000
G1 X100.07 S0.0353
X100.27 S0.0157
X100.47 S0.7686
X100.57 S0.2902
G0 X101.37 S0.0000
G1 X101.47 S0.3137
X101.57 S0.2000
G0 X101.97 S0.0000
G1 X102.07 S0.2314
X102.27 S0.8000
X102.47 S0.8588
X102.67 S0.2549
X102.77 S0.0314
G0 X103.17 S0.0000
G1 X103.27 S0.2275
X103.47 S0.2039
X103.57 S0.0275
G0 X107.17 S0.0000
G1 X107.27 S0.0588
X107.47 S0.2510
X107.67 S0.0314
X107.87 S0.0784
X108.07 S0.4627
X108.17 S0.0510
G0 X108.57 S0.0000
G1 X108.67 S0.2275
X108.87 S0.5529
X108.97 S0.2275
G0 X109.37 S0.0000
G1 X109.47 S0.3608
X109.67 S0.7647
X109.87 S0.3882
X109.97 S0.0314
G0 X110.57 S0.0000
G1 S0.0353
G0 X112.37 S0.0000
G1 X112.47 S0.1569
X112.57 S0.1451
G0 X113.37 S0.0000
G1 S0.2863
G0 X117.37 S0.0000
G1 X117.47 S0.0118
X117.57 S0.0667
G0 X117.97 S0.0000
G1 X118.07 S0.9294
X118.27 S0.9608
X118.37 S0.3608
G0 X125.17 S0.0000
G1 S0.0863
G0 X125.57 S0.0000
G1 X125.67 S0.0784
X125.77 S0.0157
G0 X132.57 S0.0000
G1 X132.67 S0.0902
X133.07 S0.3137
X133.27 S0.7765
X133.37 S0.9843
G0 X133.57 Y4.54 S0.0000
G1 X133.47 S0.5608
X132.87 S1.0000
X132.77 S0.3882
G0 X125.97 S0.0000
G1 X125.87 S0.6078
X125.67 S0.9216
X125.47 S0.9961
X125.27 S0.9176
X125.07 S0.8667
X124.97 S0.3608
G0 X118.57 S0.0000
G1 X118.47 S0.1137
X118.27 S1.0000
X118.07 S0.9137
X117.97 S0.2078
G0 X117.57 S0.0000
G1 X117.47 S0.2549
X117.37 S0.0157
G0 X114.57 S0.0000
G1 X114.47 S0.1961
X114.37 S0.0353
G0 X113.17 S0.0000
G1 X113.07 S0.0863
X112.87 S0.6549
X112.77 S0.2510
G0 X110.77 S0.0000
G1 X110.67 S0.0980
X110.47 S0.1373
X110.27 S0.0863
X110.07 S0.6706
X109.87 S0.8431
X109.77 S0.1529
G0 X109.37 S0.0000
G1 X109.27 S0.0824
X109.07 S0.1451
X108.87 S0.5137
X108.67 S0.0392
X108.47 S0.1490
X108.27 S0.1176
X108.07 S0.2824
X107.87 S0.0627
X107.67 S0.1569
X107.47 S0.0745
X107.27 S0.3098
X107.17 S0.0157
G0 X103.97 S0.0000
G1 X103.87 S0.2000
X103.67 S0.6745
X103.47 S0.3098
X103.37 S0.1961
G0 X102.97 S0.0000
G1 X102.87 S0.1725
X102.67 S0.8902
X102.47 S0.4510
X102.27 S0.0745
X102.07 S0.0392
X101.87 S0.3765
X101.67 S0.5294
X101.47 S0.3255
X101.27 S0.0941
X101.07 S0.0471
X100.97 S0.0549
G0 X100.57 S0.0000
G1 S0.0588
G0 X100.17 S0.0000
G1 X100.07 S0.6980
X99.97 S0.2863
G0 X98.77 S0.0000
G1 X98.67 S0.1216
X98.47 S0.2431
X98.27 S0.0824
X98.17 S0.0078
G0 X97.77 S0.0000
G1 X97.67 S0.1176
X97.57 S0.0588
G0 X96.17 S0.0000
G1 X95.97 S0.0196
G0 X92.17 S0.0000
G1 X92.07 S0.2471
X91.97 S0.0078
G0 X88.77 S0.0000
G1 X88.67 S0.1216
X88.47 S0.1647
X88.27 S0.9333
X81.47 S1.0000
X81.27 S0.8510
X81.07 S0.8863
X80.87 S0.8431
X80.67 S0.8078
X80.47 S0.3255
X80.27 S0.7137
X79.47 S0.3255
X79.27 S0.2471
X79.07 S0.2392
X78.87 S0.3412
X78.67 S0.2471
X77.67 S0.2392
X76.27 S0.1569
X76.07 S0.2863
X44.07 S1.0000
X43.87 S0.5451
X43.67 S0.8353
X38.47 S1.0000
X38.27 S0.7569
X38.07 S0.4824
X37.87 S0.7569
X37.67 S0.3765
X37.47 S0.4471
X37.27 S0.1020
X37.07 S0.0824
X36.97 S0.0157
G0 X32.97 S0.0000
G1 X32.87 S0.3765
X32.67 S0.2431
X32.47 S0.5569
X32.27 S0.3490
X32.17 S0.1765
G0 X31.57 S0.0000
G1 X31.47 S0.0941
X31.37 S0.1569
G0 X28.17 S0.0000
G1 X28.07 S0.0510
X27.97 S0.1490
G0 X27.37 S0.0000
G1 X27.27 S0.6235
X27.17 S0.0980
G0 X25.57 S0.0000
G1 X25.47 S0.1569
X25.27 S0.0667
X25.07 S0.7333
X24.87 S0.1961
X24.77 S0.0784
G0 X23.97 Y4.74 S0.0000
G1 X24.07 S0.2039
X24.27 S0.6235
X24.47 S0.0196
X24.57 S0.0275
G0 X28.77 S0.0000
G1 X28.87 S0.5373
X28.97 S0.7765
G0 X30.37 S0.0000
G1 X30.47 S0.3294
X30.57 S0.0745
G0 X31.77 S0.0000
G1 X32.07 S0.7765
X32.27 S0.9490
X32.37 S0.0353
G0 X38.97 S0.0000
G1 X39.07 S0.7882
X39.27 S0.8824
X89.27 S1.0000
X89.47 S0.7333
X89.67 S0.2235
X90.27 S0.0275
X90.37 S0.0078
G0 X96.77 S0.0000
G1 X96.87 S0.8902
X96.97 S0.1843
G0 X98.17 S0.0000
G1 X98.27 S0.0196
X98.47 S0.4471
X98.67 S0.1765
X98.77 S0.0196
G0 X99.17 S0.0000
G1 X99.27 S0.1451
X99.47 S0.2235
X99.57 S0.0627
G0 X100.37 S0.0000
G1 X100.47 S0.8196
X100.67 S1.0000
X100.77 S0.0824
G0 X101.37 S0.0000
G1 X101.47 S0.8118
X101.67 S0.2235
X101.77 S0.0157
G0 X102.17 S0.0000
G1 X102.27 S0.8745
X102.47 S1.0000
X102.67 S0.1765
X102.77 S0.0118
G0 X103.17 S0.0000
G1 X103.27 S0.8706
X103.47 S1.0000
X103.67 S0.4784
X103.87 S0.0157
X104.07 S0.6078
X104.27 S0.9725
X104.47 S0.6039
X104.57 S0.0275
G0 X106.97 S0.0000
G1 X107.07 S0.0627
X107.27 S0.7412
X107.37 S0.0314
G0 X107.77 S0.0000
G1 X107.87 S0.3608
X108.07 S0.8863
X108.27 S0.0706
X108.47 S0.0039
X108.67 S0.1098
X108.87 S0.6157
X108.97 S0.0275
G0 X109.57 S0.0000
G1 X109.67 S0.9647
X109.87 S0.3333
X110.27 S0.0078
X110.47 S0.9725
X110.67 S0.4039
X110.87 S0.1059
X110.97 S0.0078
G0 X112.77 S0.0000
G1 S0.0235
G0 X113.17 S0.0000
G1 X113.27 S0.7765
X113.47 S0.1490
X113.67 S0.1216
X113.77 S0.0275
G0 X114.37 S0.0000
G1 X114.47 S0.5922
X114.57 S0.0275
G0 X115.37 S0.0000
G1 X115.47 S0.0118
X115.57 S0.0275
G0 X116.17 S0.0000
G1 X116.27 S0.2000
X116.37 S0.0275
G0 X117.57 S0.0000
G1 X117.67 S0.2078
X117.87 S0.2235
X118.27 S1.0000
X118.37 S0.7922
G0 X125.57 S0.0000
G1 X125.67 S0.1608
X126.07 S1.0000
X126.17 S0.0039
G0 X132.77 S0.0000
G1 X132.87 S0.7765
X133.07 S0.9294
X133.27 S1.0000
X133.37 S0.7373
G0 X133.17 Y4.94 S0.0000
G1 X133.07 S0.1686
X132.87 S0.6039
X132.77 S0.3843
G0 X131.57 S0.0000
G1 X131.47 S0.1333
X131.27 S0.8275
X131.07 S0.7569
X130.97 S0.2784
G0 X130.17 S0.0000
G1 S0.3255
G0 X126.17 S0.0000
G1 X126.07 S0.0118
X125.67 S1.0000
X125.57 S0.5176
G0 X118.17 S0.0000
G1 X118.07 S0.1490
X117.87 S0.7176
X117.67 S0.6941
X117.57 S0.1098
G0 X116.57 S0.0000
G1 X116.47 S0.1490
X116.37 S0.5059
G0 X115.77 S0.0000
G1 X115.67 S0.0157
X115.47 S0.5059
X115.37 S0.0039
G0 X114.77 S0.0000
G1 S0.2784
G0 X114.17 S0.0000
G1 X114.07 S0.0392
X113.87 S0.5294
X113.67 S0.6784
X113.57 S0.2627
G0 X112.97 S0.0000
G1 X112.87 S0.2078
X112.77 S0.0157
G0 X111.97 S0.0000
G1 X111.87 S0.1333
X111.77 S0.0196
G0 X111.17 S0.0000
G1 X111.07 S0.3059
X110.87 S1.0000
X110.67 S0.7725
X110.47 S0.2157
X110.27 S0.1373
X110.07 S0.4902
X109.97 S0.3647
G0 X109.57 S0.0000
G1 X109.47 S0.0667
X109.27 S0.3216
X109.07 S0.7882
X108.97 S0.1843
G0 X108.57 S0.0000
G1 X108.47 S0.2549
X108.27 S0.2784
X108.07 S0.3922
X107.87 S0.0824
X107.67 S0.1804
X107.57 S0.1137
G0 X105.17 S0.0000
G1 X105.07 S0.0667
X104.87 S0.3765
X104.67 S0.8980
X104.57 S0.5255
G0 X104.17 S0.0000
G1 X104.07 S0.2353
X103.87 S0.5412
X103.67 S1.0000
X103.57 S0.6667
G0 X103.17 S0.0000
G1 X103.07 S0.1294
X102.87 S0.4314
X102.67 S0.9804
X102.57 S0.5647
G0 X101.97 S0.0000
G1 X101.87 S0.1020
X101.67 S0.7020
X101.57 S0.2471
G0 X101.17 S0.0000
G1 X101.07 S0.4627
X100.87 S0.1961
X100.77 S0.5059
G0 X99.77 S0.0000
G1 X99.67 S0.6353
X99.47 S0.5059
X99.37 S0.3882
G0 X98.77 S0.0000
G1 X98.67 S0.5569
X98.57 S0.5098
G0 X94.77 S0.0000
G1 S0.3765
G0 X91.17 S0.0000
G1 X91.07 S0.3490
X90.87 S0.9490
X90.67 S0.9686
X90.47 S0.4941
X90.27 S0.9961
X77.87 S1.0000
X77.67 S0.7765
X77.47 S1.0000
X77.27 S0.8902
X77.07 S0.7451
X76.87 S0.8784
X76.47 S1.0000
X76.27 S0.9490
X76.07 S0.7451
X75.87 S0.9961
X39.47 S1.0000
X39.27 S0.9686
X38.87 S0.7451
X38.77 S0.2627
G0 X33.37 S0.0000
G1 S0.2392
G0 X32.77 S0.0000
G1 S0.1412
G0 X24.77 S0.0000
G1 X24.67 S0.3529
X24.57 S0.5059
G0 X23.77 S0.0000
G1 S0.0902
G0 Y5.14 S0.0000
G1 X23.87 S0.1137
X24.07 S0.0039
X24.17 S0.4549
G0 X36.17 S0.0000
G1 X36.27 S0.7882
X36.47 S0.5529
X36.57 S0.0627
G0 X36.97 S0.0000
G1 X37.07 S0.4353
X37.17 S0.3255
G0 X38.37 S0.0000
G1 X38.47 S0.0431
X38.87 S0.4549
X39.07 S0.7882
X39.27 S0.8706
X75.87 S1.0000
X76.07 S0.7255
X78.27 S0.4549
X78.47 S0.5569
X78.67 S0.7882
X78.87 S0.7922
X89.67 S1.0000
X89.87 S0.5451
X90.07 S0.6706
X91.27 S1.0000
X91.37 S0.0275
G0 X94.77 S0.0000
G1 X94.87 S0.2510
X94.97 S0.3804
G0 X99.17 S0.0000
G1 X99.27 S0.2941
X99.47 S0.4549
X99.57 S0.0824
G0 X100.17 S0.0000
G1 X100.27 S0.7843
X100.37 S0.4549
G0 X101.17 S0.0000
G1 X101.27 S0.0235
X101.47 S0.0863
X101.67 S0.6275
X101.87 S0.2588
X102.07 S0.0314
X102.17 S0.2118
G0 X102.97 S0.0000
G1 X103.07 S0.0549
X103.27 S0.9490
X103.37 S0.3216
G0 X103.97 S0.0000
G1 X104.07 S0.0078
X104.27 S0.6157
X104.47 S1.0000
X104.67 S0.6745
X104.87 S0.1098
X105.07 S0.3725
X105.27 S1.0000
X105.47 S0.7176
X105.57 S0.0431
G0 X107.77 S0.0000
G1 X107.87 S0.1569
X108.07 S0.5529
X108.17 S0.4353
G0 X108.57 S0.0000
G1 X108.67 S0.5451
X108.87 S0.9529
X108.97 S0.5059
G0 X109.37 S0.0000
G1 X109.47 S0.3686
X109.67 S1.0000
X109.87 S0.6941
X110.07 S0.0431
X110.27 S0.0392
X110.47 S0.6510
X110.67 S0.5333
X110.87 S0.1882
X111.07 S0.1529
X111.27 S0.8706
X111.47 S0.9843
X111.67 S0.4745
X111.87 S0.0078
X112.07 S0.2784
X112.27 S0.7765
X112.37 S0.1451
G0 X112.97 S0.0000
G1 X113.07 S0.0078
X113.27 S0.5451
X113.47 S0.4314
X113.57 S0.3843
G0 X114.17 S0.0000
G1 X114.27 S0.2078
X114.47 S0.7137
X114.57 S0.4588
G0 X115.37 S0.0000
G1 X115.47 S0.3333
X115.57 S0.4549
G0 X116.37 S0.0000
G1 S0.4549
G0 X123.77 S0.0000
G1 X123.87 S0.0863
X123.97 S0.2078
G0 X125.57 S0.0000
G1 X125.67 S0.9608
X126.07 S1.0000
X126.17 S0.0118
G0 X129.57 S0.0000
G1 X129.67 S0.0549
X129.77 S0.1490
G0 X132.37 S0.0000
G1 X132.47 S0.1882
X132.67 S0.4549
X132.77 S0.0235
G0 X132.57 Y5.34 S0.0000
G1 X132.47 S0.9137
X132.27 S1.0000
X132.17 S0.3333
G0 X126.17 S0.0000
G1 X126.07 S0.0118
X125.87 S0.9961
X125.27 S1.0000
X125.17 S0.6275
G0 X124.77 S0.0000
G1 X124.67 S0.2235
X124.27 S0.8745
X124.17 S0.1490
G0 X116.57 S0.0000
G1 S0.3843
G0 X115.97 S0.0000
G1 X115.87 S0.0196
X115.67 S0.3843
X115.57 S0.2980
G0 X115.17 S0.0000
G1 X115.07 S0.0039
X114.87 S0.3020
X114.67 S0.9020
X114.47 S0.4784
X114.27 S0.0549
X114.07 S0.0235
X113.87 S0.2784
X113.67 S0.9608
X113.57 S0.4588
G0 X112.97 S0.0000
G1 X112.87 S0.0039
X112.67 S0.2196
X112.57 S0.7686
G0 X112.17 S0.0000
G1 X112.07 S0.0392
X111.87 S0.5137
X111.67 S0.9922
X111.47 S0.6510
X111.27 S0.0314
X111.07 S0.2353
X110.87 S0.9608
X110.77 S0.6706
G0 X110.37 S0.0000
G1 X110.27 S0.0706
X110.07 S0.6118
X109.87 S0.8902
X109.67 S0.5255
X109.47 S0.0039
X109.27 S0.3804
X109.07 S0.9373
X108.87 S0.3216
X108.67 S0.0667
X108.47 S0.5843
X108.27 S0.8314
X108.17 S0.0157
G0 X107.37 S0.0000
G1 X107.27 S0.0039
X107.07 S0.5725
X106.97 S0.0824
G0 X106.37 S0.0000
G1 X106.27 S0.3843
X106.17 S0.3020
G0 X105.57 S0.0000
G1 X105.47 S0.1686
X105.27 S0.9608
X104.87 S1.0000
X104.67 S0.9961
X104.57 S0.3333
G0 X103.97 S0.0000
G1 X103.87 S0.0353
X103.67 S0.6980
X103.57 S0.2275
G0 X102.37 S0.0000
G1 X102.27 S0.0118
X102.07 S0.3765
X101.87 S0.8824
X101.67 S0.7804
X101.57 S0.0941
G0 X100.97 S0.0000
G1 X100.87 S0.0039
X100.67 S0.1255
X100.47 S0.8745
X100.37 S0.3843
G0 X92.57 S0.0000
G1 S0.3059
G0 X91.17 S0.0000
G1 X91.07 S0.3569
X90.87 S1.0000
X90.67 S0.4863
X89.67 S0.1255
X89.47 S0.7294
X71.87 S1.0000
X71.67 S0.8902
X71.47 S0.4000
X71.27 S0.1255
X71.07 S0.5098
X39.27 S1.0000
X38.87 S0.9961
X38.67 S0.9608
X38.07 S0.8745
X37.87 S0.7647
X37.27 S0.3843
X37.07 S0.3137
X36.67 S0.0039
X36.27 S0.1255
X36.07 S0.3255
X35.87 S0.4902
X35.77 S0.0863
G0 X28.97 S0.0000
G1 X28.87 S0.6235
X28.47 S0.9961
X28.27 S0.9804
X28.07 S0.8745
X27.87 S0.4118
X27.67 S0.3843
X27.57 S0.2745
G0 X24.97 S0.0000
G1 X24.87 S0.0392
X24.67 S0.1216
X24.47 S0.9922
X24.27 S0.2706
X24.07 S0.0039
X23.87 S0.0863
X23.77 S0.0196
G0 X23.97 Y5.54 S0.0000
G1 X24.07 S0.0706
X24.27 S0.8863
X24.47 S0.5686
X24.87 S0.0078
X24.97 S0.4784
