G21         ; Set units to mm
G90         ; Absolute positioning


; Pass 0

; First Move
G0 X59.76 Y29.58 ; Generated by LaserWeb (lw.raster-to-gcode.js)
; Size       : 0 x 0 mm
; PPI        : x: 300 - y: 300
; PPM        : x: 0.0846666667 - y: 0.0846666667
; Tool diam. : 0.2 mm
; Feed rate  : 80 mm/min
; Beam range : 0 to 1
; Beam power : 0 to 100 %
; Options    : trimLine, joinPixel

G1 F80

G0 X59.76 Y29.58 S0.0000
G1 X59.86 S0.0471
X59.96 S0.1961
G0 X118.16 S0.0000
G1 X118.26 S0.0902
X118.36 S0.0392
G0 X119.76 S0.0000
G1 X119.86 S0.0863
X119.96 S0.0431
G0 X120.76 S0.0000
G1 S0.1882
G0 X121.76 S0.0000
G1 X121.86 S0.6510
X121.96 S0.1216
G0 X122.76 S0.0000
G1 X122.86 S0.5451
X123.06 S0.7333
X123.26 S0.3294
X123.36 S0.2471
G0 X123.96 Y29.78 S0.0000
G1 X123.76 S0.0431
G0 X123.36 S0.0000
G1 X123.26 S0.0353
X122.86 S0.0471
X122.76 S0.0235
G0 X121.76 S0.0000
G1 X121.66 S0.0078
X121.56 S0.0863
G0 X121.16 S0.0000
G1 S0.2549
G0 X120.76 S0.0000
G1 S0.0275
G0 X119.96 S0.0000
G1 X119.86 S0.0078
X119.66 S0.0157
X119.56 S0.2588
G0 X118.36 S0.0000
G1 X118.26 S0.0039
X118.06 S0.4471
X117.96 S0.1882
G0 X117.36 S0.0000
G1 X117.26 S0.0941
X117.16 S0.0078
G0 X62.36 S0.0000
G1 X62.26 S0.4510
X62.06 S0.6902
X61.96 S0.3961
G0 X60.76 S0.0000
G1 X60.66 S0.4627
X60.56 S0.6902
G0 X57.96 S0.0000
G1 X57.86 S0.1804
X57.66 S0.6902
X57.56 S0.1686
G0 X58.56 Y29.98 S0.0000
G1 X58.66 S0.1216
X59.46 S0.2314
X59.56 S0.0471
G0 X62.16 S0.0000
G1 X62.26 S0.0039
X62.36 S0.4157
G0 X62.96 S0.0000
G1 X63.06 S0.0471
X63.16 S0.0314
G0 X117.16 S0.0000
G1 X117.26 S0.0039
X117.46 S0.0471
X117.66 S0.0039
X117.86 S0.2196
X118.06 S0.2588
X118.26 S0.2078
X118.66 S0.2314
X118.76 S0.0627
G0 X119.56 S0.0000
G1 X119.66 S0.1294
X119.86 S0.1686
X119.96 S0.4706
G0 X121.16 S0.0000
G1 S0.1294
G0 X121.56 S0.0000
G1 X121.66 S0.4824
X121.76 S0.0118
G0 X122.16 S0.0000
G1 S0.1608
G0 X122.96 S0.0000
G1 X123.06 S0.0078
X123.26 S0.4627
X123.46 S0.2314
X123.66 S0.6039
X123.86 S0.5569
X124.06 S0.0196
X124.16 S0.3529
G0 Y30.18 S0.0000
G1 X124.06 S0.0235
X123.86 S0.1412
X123.66 S0.8588
X123.46 S0.1882
X123.26 S0.1373
X123.16 S0.0275
G0 X122.16 S0.0000
G1 S0.0549
G0 X121.76 S0.0000
G1 X121.66 S0.0039
X121.56 S0.0235
G0 X119.96 S0.0000
G1 X119.86 S0.0078
X119.76 S0.0627
G0 X118.76 S0.0000
G1 X118.66 S0.0235
X118.26 S0.0784
X118.06 S0.0706
X117.86 S0.0549
X117.76 S0.0745
G0 X115.36 S0.0000
G1 X115.26 S0.2745
X115.16 S0.7765
G0 X112.76 S0.0000
G1 X112.66 S0.0039
X112.56 S0.0275
G0 X63.76 S0.0000
G1 S0.0353
G0 X63.36 S0.0000
G1 X63.26 S0.0196
X63.06 S0.0118
X62.96 S0.0157
G0 X61.56 S0.0000
G1 X61.46 S0.8706
X61.06 S0.9216
X60.96 S0.8471
G0 X60.56 S0.0000
G1 X60.46 S0.5804
X60.26 S0.5137
X59.66 S0.0627
X59.46 S0.0235
X58.66 S0.0784
X58.56 S0.0392
G0 X56.96 S0.0000
G1 X56.86 S0.0627
X56.76 S0.0039
G0 X56.16 Y30.38 S0.0000
G1 X56.26 S0.0549
X56.66 S0.5882
X56.86 S0.0118
X57.06 S0.3333
X57.26 S0.1451
X57.46 S0.0039
X57.66 S0.0353
X57.86 S0.1373
X58.06 S0.4706
X58.46 S0.5882
X58.56 S0.2745
G0 X59.56 S0.0000
G1 X59.66 S0.0431
X60.06 S0.2706
X60.26 S0.3529
X60.46 S0.4118
X60.56 S0.1725
G0 X60.96 S0.0000
G1 X61.06 S0.3451
X61.46 S0.2706
X61.66 S0.0549
X61.86 S0.0863
X62.06 S0.1373
X62.16 S0.0745
G0 X62.56 S0.0000
G1 X62.66 S0.1255
X62.86 S0.1373
X63.06 S0.1098
X63.26 S0.0039
X63.46 S0.0824
X63.66 S0.0902
X63.86 S0.2902
X64.06 S0.0784
X64.16 S0.5451
G0 X111.36 S0.0000
G1 X111.46 S0.0118
X111.56 S0.0275
G0 X112.56 S0.0000
G1 X112.66 S0.1098
X112.76 S0.0196
G0 X116.76 S0.0000
G1 X116.86 S0.1294
X117.76 S0.1373
G0 X118.36 S0.0000
G1 X118.46 S0.0235
X118.66 S0.1373
X118.86 S0.5647
X119.66 S0.7294
X119.86 S1.0000
X120.06 S0.7608
X120.66 S0.7294
X120.86 S0.3608
X121.46 S0.1373
X121.56 S0.0941
G0 X122.36 S0.0000
G1 X122.46 S0.0039
X122.66 S0.4863
X123.06 S0.7294
X123.26 S0.5255
X123.46 S0.3569
X123.56 S0.2314
G0 X124.16 S0.0000
G1 S0.0980
G0 X125.76 S0.0000
G1 S0.0863
G0 Y30.58 S0.0000
G1 S0.1529
G0 X123.56 S0.0000
G1 X123.46 S0.0627
X123.26 S0.9373
X122.46 S1.0000
X122.26 S0.7569
X122.06 S0.7529
X121.96 S0.6157
G0 X121.56 S0.0000
G1 X121.46 S0.1686
X121.26 S0.7490
X118.46 S1.0000
X118.26 S0.7961
X118.16 S0.2078
G0 X117.76 S0.0000
G1 X117.66 S0.6588
X116.86 S1.0000
X116.66 S0.9804
X116.46 S0.7529
X116.36 S0.1608
G0 X115.36 S0.0000
G1 X115.26 S0.6706
X115.16 S0.0039
G0 X112.96 S0.0000
G1 S0.6196
G0 X111.56 S0.0000
G1 X111.46 S0.0510
X111.36 S0.0235
G0 X66.16 S0.0000
G1 X66.06 S0.6078
X65.96 S0.2353
G0 X64.96 S0.0000
G1 X64.86 S0.1529
X64.76 S0.0980
G0 X64.36 S0.0000
G1 X64.26 S0.6078
X64.06 S0.7529
X63.86 S0.8941
X63.66 S0.6627
X63.56 S0.1608
G0 X62.96 S0.0000
G1 X62.86 S0.1961
X62.66 S0.2471
X62.56 S0.2235
G0 X62.16 S0.0000
G1 X62.06 S0.1333
X61.86 S0.2471
X61.76 S0.1529
G0 X60.96 S0.0000
G1 S0.1686
G0 X60.36 S0.0000
G1 X60.26 S0.2471
X60.16 S0.1412
G0 X59.56 S0.0000
G1 X59.46 S0.1529
X59.26 S0.7529
X59.16 S0.6667
G0 X58.76 S0.0000
G1 X58.66 S0.4078
X58.36 S0.7529
G0 X57.96 S0.0000
G1 X57.86 S0.0627
X57.66 S0.2471
X57.46 S0.0627
X57.26 S0.0039
X57.06 S0.2471
X56.96 S0.1137
G0 X54.56 Y30.78 S0.0000
G1 X54.66 S0.3922
X54.86 S0.1647
X55.06 S0.4118
X55.16 S0.2118
G0 X56.16 S0.0000
G1 S0.3451
G0 X56.56 S0.0000
G1 S0.3686
G0 X56.96 S0.0000
G1 X57.06 S0.2510
X57.26 S0.3961
X57.86 S0.0510
X57.96 S0.0157
G0 X58.96 S0.0000
G1 X59.06 S0.5529
X59.26 S0.5725
X59.46 S0.5373
X59.66 S0.6000
X59.86 S0.9490
X59.96 S0.1176
G0 X60.36 S0.0000
G1 X60.46 S0.0510
X60.66 S0.2039
X60.86 S0.4667
X61.06 S0.3686
X61.26 S0.0510
X61.46 S0.0431
X61.66 S0.3333
X61.86 S0.4471
X62.06 S0.7725
X62.26 S0.7529
X62.46 S0.3020
X62.66 S0.0157
X62.86 S0.5882
X63.06 S0.8353
X63.26 S0.5882
X63.46 S0.5451
X63.56 S0.0196
G0 X64.56 S0.0000
G1 X64.66 S0.4980
X64.86 S0.1333
X65.06 S0.0745
X65.26 S0.4353
X65.36 S0.0549
G0 X66.36 S0.0000
G1 X66.46 S0.2980
X66.66 S0.4314
X66.76 S0.1255
G0 X67.16 S0.0000
G1 X67.26 S0.5765
X67.46 S0.0510
X67.56 S0.0314
G0 X68.16 S0.0000
G1 X68.36 S0.0471
G0 X69.36 S0.0000
G1 X69.46 S0.1608
X69.56 S0.0431
G0 X110.76 S0.0000
G1 X110.86 S0.0039
X111.06 S0.4118
X111.26 S0.5412
X111.46 S0.5725
X111.56 S0.3333
G0 X112.36 S0.0000
G1 S0.2392
G0 X114.36 S0.0000
G1 X114.46 S0.0510
X114.66 S0.2078
X114.86 S0.5882
X115.06 S0.6588
X115.26 S0.9451
X115.46 S0.0941
X116.26 S0.5882
X116.46 S0.6784
X117.46 S1.0000
X117.66 S0.5176
X117.86 S0.0275
X118.06 S0.2902
X118.66 S1.0000
X118.86 S0.9608
X119.66 S0.9490
X119.86 S0.9608
X120.26 S1.0000
X120.46 S0.9608
X120.66 S0.5216
X121.16 S0.4118
G0 X121.56 S0.0000
G1 X121.66 S0.3216
X123.86 S1.0000
X124.06 S0.6549
X124.26 S0.5882
X124.46 S0.2627
X124.86 S0.0510
X124.96 S0.0353
G0 X126.96 Y30.98 S0.0000
G1 X126.86 S0.0627
X126.76 S0.1137
G0 X125.16 S0.0000
G1 X125.06 S0.4510
X124.86 S0.8353
X121.86 S1.0000
X121.66 S0.5451
X121.56 S0.1529
G0 X121.16 S0.0000
G1 X121.06 S0.0157
X120.46 S0.5216
X120.26 S0.5098
X119.86 S0.4784
X119.76 S0.1255
G0 X118.76 S0.0000
G1 X118.66 S0.1333
X118.46 S0.9490
X118.26 S0.9373
X118.06 S0.4784
X117.86 S0.1412
X117.66 S0.2588
X117.46 S0.4784
X117.26 S0.6627
X115.46 S1.0000
X115.36 S0.8471
G0 X114.96 S0.0000
G1 X114.86 S0.4745
X114.46 S1.0000
X114.26 S0.9843
X114.06 S0.5333
X113.66 S0.5216
X113.56 S0.0314
G0 X112.36 S0.0000
G1 X112.26 S0.0078
X112.06 S0.5216
X111.96 S0.3529
G0 X111.56 S0.0000
G1 X111.46 S0.4235
X111.26 S0.4824
X111.16 S0.1451
G0 X69.56 S0.0000
G1 S0.3373
G0 X68.76 S0.0000
G1 X68.66 S0.1804
X68.46 S0.5216
X68.26 S0.4824
X68.06 S0.4784
X67.86 S0.5216
X67.66 S0.1216
X67.46 S0.2863
X67.06 S0.4784
X66.66 S0.5216
X66.46 S0.9608
X66.36 S0.3961
G0 X65.36 S0.0000
G1 X64.86 S0.4784
X64.66 S0.4863
X64.46 S0.8314
X64.26 S0.5216
X64.06 S0.2353
X63.86 S0.5216
X63.66 S0.0078
X63.46 S0.6863
X62.66 S1.0000
X62.46 S0.3216
X62.26 S0.3098
X61.86 S0.4784
X61.76 S0.2941
G0 X61.36 S0.0000
G1 X61.26 S0.5255
X60.46 S1.0000
X60.26 S0.9725
X60.16 S0.0392
G0 X59.76 S0.0000
G1 X59.66 S0.8196
X59.26 S0.5216
X59.06 S0.7961
X58.96 S0.1451
G0 X57.96 S0.0000
G1 X57.86 S0.1255
X57.46 S0.4784
X57.26 S0.8667
X57.06 S0.9922
X56.86 S0.5216
X56.76 S0.2784
G0 X56.16 S0.0000
G1 S0.3490
G0 X56.76 Y31.18 S0.0000
G1 X56.86 S0.0157
X57.26 S0.0314
X57.36 S0.0235
G0 X58.16 S0.0000
G1 X58.26 S0.4039
X58.66 S0.5294
X58.76 S0.4863
G0 X59.16 S0.0000
G1 X59.26 S0.1608
X59.46 S0.4235
X59.66 S0.0314
X59.76 S0.0275
G0 X60.36 S0.0000
G1 X60.46 S0.2588
X61.06 S0.4706
X61.26 S0.4118
X61.36 S0.0078
G0 X61.76 S0.0000
G1 X61.86 S0.4941
X62.06 S0.2235
X62.26 S0.0039
X62.46 S0.4392
X62.66 S0.9294
X62.86 S1.0000
X63.06 S0.8941
X63.46 S0.4706
X63.56 S0.1843
G0 X63.96 S0.0000
G1 X64.06 S0.0314
X64.26 S0.0157
X64.66 S0.0314
X64.86 S0.0039
X65.06 S0.0275
X65.16 S0.1804
G0 X65.56 S0.0000
G1 X65.66 S0.0157
X65.86 S0.6980
X66.06 S0.9686
X66.26 S0.4627
X66.46 S0.3451
X66.66 S0.0275
X66.96 S0.0314
G0 X67.76 S0.0000
G1 X67.86 S0.0078
X68.06 S0.1686
X68.26 S0.5294
X68.46 S0.4627
X68.66 S0.4471
X68.86 S0.0118
X68.96 S0.2118
G0 X69.56 S0.0000
G1 S0.0196
G0 X109.56 S0.0000
G1 X109.66 S0.2039
X109.86 S0.5020
X109.96 S0.3804
G0 X111.36 S0.0000
G1 X111.46 S0.0039
X111.56 S0.0235
G0 X111.96 S0.0000
G1 X112.06 S0.0196
X112.16 S0.0314
G0 X112.56 S0.0000
G1 X112.66 S0.4392
X112.86 S0.2745
X113.06 S0.5294
X113.26 S0.4157
X113.46 S0.0471
X113.66 S0.4431
X113.86 S0.8157
X114.86 S1.0000
X115.06 S0.1765
X115.26 S0.4824
X116.26 S1.0000
X116.46 S0.6549
X116.66 S0.8667
X117.26 S0.4706
X117.46 S0.4510
X117.66 S0.4392
X117.76 S0.2392
G0 X118.36 S0.0000
G1 X118.46 S0.1059
X118.66 S0.4706
X118.86 S0.8196
X119.06 S0.9686
X119.26 S0.7255
X119.46 S0.5294
X119.56 S0.3255
G0 X120.16 S0.0000
G1 X120.26 S0.0431
X120.46 S0.9922
X121.06 S1.0000
X121.26 S0.9686
X121.46 S0.7922
X121.66 S0.4392
X121.86 S0.3843
X122.06 S0.0314
X122.26 S0.4471
X122.46 S0.5686
X122.66 S0.9804
X122.86 S0.5686
X123.06 S0.5529
X123.26 S0.0588
X123.46 S0.0314
X123.66 S0.5176
X124.06 S0.5608
X124.26 S0.8392
X124.46 S0.7373
X124.86 S0.5608
X125.06 S0.5098
X125.26 S0.5569
X125.36 S0.4157
G0 X126.76 S0.0000
G1 X126.86 S0.1255
X126.96 S0.0667
G0 X126.56 Y31.38 S0.0000
G1 X126.46 S0.0196
X126.26 S0.2902
X126.06 S0.5922
X125.86 S1.0000
X125.66 S0.7922
X125.46 S0.2549
X125.26 S0.0549
X124.86 S0.2902
X124.66 S0.7373
X124.56 S0.6353
G0 X123.96 S0.0000
G1 X123.66 S0.2902
X123.46 S0.3490
X122.86 S1.0000
X122.66 S0.2902
X122.56 S0.1725
G0 X122.16 S0.0000
G1 X122.06 S0.2157
X120.66 S1.0000
X120.46 S0.9412
X120.36 S0.5333
G0 X118.96 S0.0000
G1 X118.46 S1.0000
X118.36 S0.1765
G0 X117.96 S0.0000
G1 X117.86 S0.5020
X117.66 S0.8667
X116.26 S1.0000
X116.06 S0.1569
X115.86 S0.8706
X115.66 S1.0000
X115.46 S0.7098
X115.36 S0.4824
G0 X114.96 S0.0000
G1 X114.86 S0.3569
X113.26 S1.0000
X113.06 S0.8941
X112.86 S0.2902
X112.66 S0.0588
X112.46 S0.8824
X112.26 S0.9882
X111.46 S0.2902
X111.36 S0.0275
G0 X110.16 S0.0000
G1 X110.06 S0.4392
X109.86 S1.0000
X109.66 S0.7490
X109.46 S0.7098
X109.36 S0.2314
G0 X70.16 S0.0000
G1 X70.06 S0.0784
X69.96 S0.2549
G0 X69.16 S0.0000
G1 X69.06 S0.5373
X68.86 S1.0000
X68.66 S0.8078
X68.46 S0.8039
X68.26 S0.2902
X68.06 S0.6157
X67.86 S0.0431
X67.66 S0.2902
X67.26 S1.0000
X67.06 S0.6863
X66.86 S0.2000
X66.66 S0.0902
X66.46 S0.3451
X65.56 S1.0000
G0 X64.96 S0.0000
G1 X64.86 S0.0627
X64.66 S0.2902
X64.46 S0.8471
X64.06 S1.0000
X63.86 S0.5922
X63.76 S0.1608
G0 X63.36 S0.0000
G1 X63.26 S0.2196
X63.06 S0.0118
X62.86 S0.2353
X62.76 S0.0353
G0 X62.16 S0.0000
G1 X62.06 S0.2902
X61.96 S0.1686
G0 X61.36 S0.0000
G1 S0.1804
G0 X59.96 S0.0000
G1 X59.86 S0.2863
X59.66 S0.2902
X59.56 S0.0471
G0 X58.76 S0.0000
G1 X58.66 S0.8667
X58.46 S1.0000
X58.26 S0.7216
X58.06 S0.7765
X57.86 S0.8157
X57.76 S0.2784
G0 X57.36 S0.0000
G1 X57.26 S0.2196
X57.16 S0.1059
G0 X56.56 S0.0000
G1 X56.46 S0.2196
X56.26 S0.5020
X56.16 S0.2157
G0 X55.76 S0.0000
G1 X55.66 S0.1843
X55.46 S0.5216
X55.26 S0.8353
X55.16 S0.3451
G0 X54.16 S0.0000
G1 S0.1765
G0 X51.76 S0.0000
G1 S0.1647
G0 X51.36 Y31.58 S0.0000
G1 X51.46 S0.5569
X51.66 S0.7020
X51.86 S0.0745
X52.06 S0.3961
X52.16 S0.0275
G0 X53.36 S0.0000
G1 X53.46 S0.1529
X53.66 S0.4157
X53.86 S0.3647
X54.06 S0.0549
X54.26 S0.3725
X54.46 S0.3098
X54.56 S0.5176
G0 X55.16 S0.0000
G1 X55.26 S0.5804
X55.36 S0.6314
G0 X55.76 S0.0000
G1 X55.86 S0.0745
X56.06 S0.0471
X56.26 S0.3608
X56.46 S0.0588
X56.66 S0.5804
X56.86 S0.5569
X57.06 S0.0039
X57.26 S0.1490
X57.46 S0.3882
X57.66 S0.0392
X57.86 S0.1137
X58.06 S0.1216
X58.26 S0.4745
X58.46 S0.8863
X58.66 S0.8392
X58.76 S0.3804
G0 X59.36 S0.0000
G1 X59.46 S0.3529
X59.66 S0.8980
X59.86 S1.0000
X60.06 S0.9961
X60.46 S0.8784
X60.56 S0.1882
G0 X60.96 S0.0000
G1 X61.06 S0.6039
X61.26 S0.8392
X61.46 S0.2078
X61.66 S0.2392
X61.86 S0.6588
X62.06 S0.9490
X62.26 S1.0000
X62.46 S0.8784
X62.66 S0.6902
X62.86 S0.2784
X62.96 S0.0980
G0 X63.36 S0.0000
G1 X63.46 S0.2039
X63.66 S0.2980
X63.86 S0.6863
X64.26 S0.4196
X64.46 S0.5294
X64.66 S0.4980
X64.86 S0.4941
X65.06 S0.8588
X65.26 S0.0235
X65.46 S0.2980
X65.66 S0.6902
X66.06 S1.0000
X66.26 S0.7137
X66.46 S0.7647
X66.66 S1.0000
X66.86 S0.3176
X67.06 S0.9647
X67.86 S1.0000
X68.06 S0.7451
X68.26 S0.0353
X68.46 S0.1216
X68.66 S0.5373
X68.86 S0.8196
X69.06 S0.7020
X69.16 S0.3647
G0 X69.76 S0.0000
G1 X69.86 S0.5686
X70.06 S0.9843
X70.26 S0.9137
X70.46 S0.8784
X70.66 S0.5529
X70.86 S0.2980
X70.96 S0.0039
G0 X107.96 S0.0000
G1 X108.06 S0.2902
X108.26 S0.3412
X108.36 S0.1294
G0 X108.76 S0.0000
G1 X108.86 S0.1608
X108.96 S0.0078
G0 X109.76 S0.0000
G1 X109.86 S0.5294
X110.26 S0.7020
X110.46 S0.5804
X110.56 S0.2549
G0 X110.96 S0.0000
G1 X111.06 S0.0980
X111.26 S0.6471
X111.46 S0.8902
X112.26 S1.0000
X112.46 S0.4275
X112.66 S0.0706
X112.86 S0.4902
X114.86 S1.0000
X115.06 S0.4980
X115.66 S0.2980
X115.86 S0.1216
X116.06 S0.0667
X116.26 S0.7098
X117.66 S1.0000
X117.76 S0.8078
G0 X118.36 S0.0000
G1 X118.46 S0.0196
X118.66 S0.6431
X118.86 S1.0000
X118.96 S0.3725
G0 X120.56 S0.0000
G1 X120.66 S0.0941
X122.06 S0.1216
X122.26 S0.0275
X122.46 S0.0118
X122.66 S0.8275
X124.06 S1.0000
X124.26 S0.3216
X124.46 S0.5294
X125.26 S1.0000
X125.46 S0.2471
X125.66 S0.9137
X126.46 S1.0000
X126.66 S0.8863
X126.86 S0.8784
X127.06 S0.3686
X127.16 S0.0471
G0 X127.36 Y31.78 S0.0000
G1 X127.26 S0.0157
X127.06 S0.8549
X125.46 S1.0000
X125.26 S0.9922
X124.66 S1.0000
X124.46 S0.9608
X124.26 S0.0078
X124.06 S0.4039
X122.86 S1.0000
X122.66 S0.9490
X122.46 S0.0510
X122.26 S0.0196
X122.06 S0.9098
X121.26 S0.9882
X121.06 S0.5137
X120.96 S0.0392
G0 X118.96 S0.0000
G1 X118.86 S0.0039
X118.76 S0.0118
G0 X118.16 S0.0000
G1 X118.06 S0.1412
X117.86 S0.9882
X117.66 S0.4941
X117.06 S0.0118
X116.86 S0.8157
X116.46 S0.9255
X116.26 S0.2078
X116.16 S0.0039
G0 X115.76 S0.0000
G1 X115.66 S0.0353
X115.46 S0.3804
X114.66 S1.0000
X114.46 S0.3529
X114.26 S0.0431
X114.06 S0.9765
X112.86 S1.0000
X112.76 S0.8784
G0 X112.36 S0.0000
G1 X112.26 S0.5059
X111.06 S1.0000
X110.86 S0.3255
X110.76 S0.0392
G0 X108.76 S0.0000
G1 X108.66 S0.0078
X108.46 S0.8941
X108.26 S0.9333
X108.06 S0.2235
X107.86 S0.8588
X107.76 S0.2941
G0 X71.96 S0.0000
G1 X71.76 S0.0118
G0 X71.36 S0.0000
G1 X71.26 S0.0078
X71.06 S0.0745
X70.86 S0.9176
X70.46 S1.0000
X70.26 S0.9804
X70.06 S0.9255
X69.86 S0.0980
X69.76 S0.0039
G0 X69.16 S0.0000
G1 X68.86 S0.0118
X68.76 S0.0078
G0 X68.36 S0.0000
G1 X68.26 S0.2824
X68.06 S0.9882
X66.86 S1.0000
X66.66 S0.1176
X66.46 S1.0000
X66.26 S0.9922
X66.06 S0.9882
